;Generated with Cura_SteamEngine 15.01
; Default start code
G28 ; Home extruder
G1 Z15 F100
M107 ; Turn off fan
G90 ; Absolute positioning
M82 ; Extruder in absolute mode
M190 S85
; Activate all used extruder
M104 T0 S245
G92 E0 ; Reset extruder position
; Wait for all used extruders to reach temperature
M109 T0 S245
;Layer count: 98
;LAYER:0
M107
G0 F9000 X17.022 Y69.614 Z0.300
G0 X16.677 Y69.744
;TYPE:SKIRT
G1 F1800 X17.022 Y69.614 E0.01839
G1 X19.787 Y69.304 E0.15720
G1 X180.209 Y69.300 E8.16069
G1 X183.000 Y69.666 E8.30113
G1 X183.456 Y69.736 E8.32414
G1 X186.165 Y70.858 E8.47043
G1 X186.604 Y71.036 E8.49406
G1 X188.959 Y72.844 E8.64219
G1 X189.343 Y73.132 E8.66613
G1 X191.186 Y75.534 E8.81718
G1 X191.462 Y75.902 E8.84013
G1 X192.605 Y78.660 E8.98907
G1 X192.778 Y79.088 E9.01211
G1 X193.194 Y82.251 E9.17127
G1 X193.200 Y117.709 E10.94027
G1 X192.833 Y120.501 E11.08077
G1 X192.763 Y120.956 E11.10373
G1 X191.641 Y123.665 E11.25002
G1 X191.463 Y124.104 E11.27365
G1 X189.655 Y126.459 E11.42178
G1 X189.368 Y126.842 E11.44565
G1 X186.966 Y128.685 E11.59670
G1 X186.597 Y128.962 E11.61972
G1 X183.839 Y130.105 E11.76867
G1 X183.411 Y130.278 E11.79170
G1 X180.248 Y130.694 E11.95086
G1 X19.791 Y130.700 E19.95609
G1 X16.998 Y130.333 E20.09663
G1 X16.543 Y130.263 E20.11960
G1 X13.835 Y129.141 E20.26584
G1 X13.396 Y128.963 E20.28947
G1 X11.012 Y127.134 E20.43938
G1 X10.657 Y126.868 E20.46151
G1 X8.814 Y124.466 E20.61256
G1 X8.537 Y124.097 E20.63558
G1 X7.394 Y121.339 E20.78452
G1 X7.220 Y120.910 E20.80762
G1 X6.808 Y117.765 E20.96587
G1 X6.800 Y116.992 E21.00443
G1 X6.800 Y82.321 E22.73418
G1 X7.067 Y79.943 E22.85356
G1 X7.113 Y79.550 E22.87330
G1 X7.969 Y77.103 E23.00264
G1 X8.108 Y76.733 E23.02236
G1 X9.453 Y74.592 E23.14850
G1 X9.657 Y74.264 E23.16777
G1 X11.729 Y72.191 E23.31400
G1 X13.932 Y70.797 E23.44406
G1 X14.272 Y70.586 E23.46402
G1 X16.677 Y69.744 E23.59115
G1 F2400 E19.59115
G0 F9000 X17.911 Y73.338
;TYPE:WALL-INNER
G1 F2400 E23.59115
G1 F1800 X19.997 Y73.104 E23.69587
G1 X179.960 Y73.100 E31.67646
G1 X182.429 Y73.424 E31.80070
G1 X184.699 Y74.364 E31.92327
G1 X186.645 Y75.858 E32.04567
G1 X188.135 Y77.801 E32.16783
G1 X189.074 Y80.066 E32.29016
G1 X189.394 Y82.500 E32.41263
G1 X189.400 Y117.460 E34.15680
G1 X189.075 Y119.929 E34.28104
G1 X188.135 Y122.199 E34.40361
G1 X186.641 Y124.145 E34.52601
G1 X184.699 Y125.635 E34.64813
G1 X182.433 Y126.574 E34.77050
G1 X179.999 Y126.894 E34.89298
G1 X20.040 Y126.900 E42.87337
G1 X17.570 Y126.575 E42.99766
G1 X15.301 Y125.635 E43.12019
G1 X13.354 Y124.141 E43.24263
G1 X11.864 Y122.199 E43.36475
G1 X10.925 Y119.934 E43.48707
G1 X10.606 Y117.496 E43.60974
G1 X10.600 Y116.975 E43.63574
G1 X10.600 Y82.531 E45.35416
G1 X10.838 Y80.408 E45.46074
G1 X11.532 Y78.427 E45.56546
G1 X12.655 Y76.639 E45.67080
G1 X14.116 Y75.178 E45.77388
G1 X15.924 Y74.033 E45.88065
G1 X17.911 Y73.338 E45.98567
G0 F9000 X85.014 Y91.730
G1 F1800 X84.545 Y95.500 E46.17520
G1 X85.012 Y99.265 E46.36448
G1 X86.329 Y102.671 E46.54667
G1 X86.382 Y102.811 E46.55413
G1 X88.583 Y105.950 E46.74540
G1 X111.417 Y105.950 E47.88459
G1 X113.614 Y102.812 E48.07571
G1 X114.946 Y99.372 E48.25975
G1 X114.987 Y99.281 E48.26472
G1 X115.455 Y95.500 E48.45480
G1 X115.001 Y91.849 E48.63835
G1 X114.992 Y91.741 E48.64376
G1 X113.664 Y88.313 E48.82717
G1 X113.615 Y88.186 E48.83396
G1 X111.416 Y85.050 E49.02505
G1 X88.582 Y85.050 E50.16424
G1 X86.389 Y88.181 E50.35495
G1 X85.014 Y91.730 E50.54483
G0 F9000 X85.405 Y91.828
;TYPE:WALL-OUTER
G1 F1800 X84.948 Y95.500 E50.72944
G1 X85.403 Y99.167 E50.91379
G1 X86.702 Y102.525 E51.09342
G1 X86.739 Y102.622 E51.09860
G1 X88.791 Y105.550 E51.27698
G1 X111.209 Y105.550 E52.39542
G1 X113.259 Y102.622 E52.57374
G1 X114.577 Y99.218 E52.75586
G1 X114.597 Y99.173 E52.75831
G1 X115.052 Y95.500 E52.94296
G1 X114.604 Y91.898 E53.12405
G1 X114.599 Y91.834 E53.12725
G1 X113.260 Y88.376 E53.31226
G1 X111.208 Y85.450 E53.49055
G1 X88.790 Y85.450 E54.60899
G1 X86.742 Y88.375 E54.78714
G1 X85.405 Y91.828 E54.97187
G0 F9000 X85.108 Y91.790
G0 X20.003 Y73.004
G0 X19.979 Y72.704
G1 F1800 X179.989 Y72.700 E62.95480
G1 X182.519 Y73.031 E63.08210
G1 X184.887 Y74.009 E63.20992
G1 X186.918 Y75.563 E63.33750
G1 X188.477 Y77.590 E63.46508
G1 X188.484 Y77.599 E63.46565
G1 X189.459 Y79.951 E63.59267
G1 X189.464 Y79.962 E63.59328
G1 X189.794 Y82.472 E63.71958
G1 X189.800 Y117.489 E65.46658
G1 X189.468 Y120.019 E65.59389
G1 X188.490 Y122.387 E65.72171
G1 X186.936 Y124.418 E65.84929
G1 X186.929 Y124.428 E65.84990
G1 X184.910 Y125.977 E65.97686
G1 X184.901 Y125.984 E65.97743
G1 X182.548 Y126.959 E66.10450
G1 X182.537 Y126.964 E66.10510
G1 X180.028 Y127.294 E66.23136
G1 X20.011 Y127.300 E74.21464
G1 X17.480 Y126.968 E74.34199
G1 X15.113 Y125.990 E74.46976
G1 X13.081 Y124.436 E74.59739
G1 X13.071 Y124.429 E74.59800
G1 X11.522 Y122.410 E74.72496
G1 X11.515 Y122.401 E74.72552
G1 X10.540 Y120.048 E74.85259
G1 X10.535 Y120.037 E74.85320
G1 X10.206 Y117.527 E74.97949
G1 X10.200 Y116.975 E75.00703
G1 X10.200 Y82.513 E76.72635
G1 X10.445 Y80.331 E76.83589
G1 X10.446 Y80.319 E76.83650
G1 X11.167 Y78.259 E76.94538
G1 X12.333 Y76.400 E77.05486
G1 X13.864 Y74.864 E77.16306
G1 X15.737 Y73.678 E77.27366
G1 X17.810 Y72.950 E77.38328
G1 X19.979 Y72.704 E77.49218
G0 F9000 X19.808 Y73.266
;TYPE:SKIN
G1 F1800 X73.300 Y126.757 E81.26630
G0 F9000 X73.865 Y126.757
G1 F1800 X20.351 Y73.243 E85.04200
G0 F9000 X20.917 Y73.243
G1 F1800 X74.431 Y126.757 E88.81770
G0 F9000 X74.997 Y126.757
G1 F1800 X21.483 Y73.243 E92.59340
G0 F9000 X22.049 Y73.243
G1 F1800 X75.562 Y126.757 E96.36907
G0 F9000 X76.128 Y126.757
G1 F1800 X22.614 Y73.243 E100.14477
G0 F9000 X23.180 Y73.243
G1 F1800 X76.694 Y126.757 E103.92047
G0 F9000 X77.259 Y126.757
G1 F1800 X23.746 Y73.243 E107.69614
G0 F9000 X24.311 Y73.243
G1 F1800 X77.825 Y126.757 E111.47184
G0 F9000 X78.391 Y126.757
G1 F1800 X24.877 Y73.243 E115.24754
G0 F9000 X25.443 Y73.243
G1 F1800 X78.956 Y126.757 E119.02321
G0 F9000 X79.522 Y126.757
G1 F1800 X26.008 Y73.243 E122.79891
G0 F9000 X26.574 Y73.243
G1 F1800 X80.088 Y126.757 E126.57461
G0 F9000 X80.654 Y126.757
G1 F1800 X27.140 Y73.243 E130.35031
G0 F9000 X27.705 Y73.243
G1 F1800 X81.219 Y126.757 E134.12601
G0 F9000 X81.785 Y126.757
G1 F1800 X28.271 Y73.243 E137.90172
G0 F9000 X28.837 Y73.243
G1 F1800 X82.351 Y126.757 E141.67742
G0 F9000 X82.916 Y126.757
G1 F1800 X29.402 Y73.243 E145.45312
G0 F9000 X29.968 Y73.243
G1 F1800 X83.482 Y126.757 E149.22882
G0 F9000 X84.048 Y126.757
G1 F1800 X30.534 Y73.243 E153.00452
G0 F9000 X31.099 Y73.243
G1 F1800 X84.613 Y126.757 E156.78022
G0 F9000 X85.179 Y126.757
G1 F1800 X31.665 Y73.243 E160.55593
G0 F9000 X32.231 Y73.243
G1 F1800 X85.745 Y126.757 E164.33163
G0 F9000 X86.310 Y126.757
G1 F1800 X32.797 Y73.243 E168.10729
G0 F9000 X33.362 Y73.243
G1 F1800 X86.876 Y126.757 E171.88300
G0 F9000 X87.442 Y126.757
G1 F1800 X33.928 Y73.243 E175.65870
G0 F9000 X34.494 Y73.243
G1 F1800 X88.007 Y126.757 E179.43436
G0 F9000 X88.573 Y126.757
G1 F1800 X35.059 Y73.243 E183.21007
G0 F9000 X35.625 Y73.243
G1 F1800 X89.138 Y126.756 E186.98570
G0 F9000 X89.704 Y126.756
G1 F1800 X36.191 Y73.243 E190.76133
G0 F9000 X36.756 Y73.243
G1 F1800 X90.269 Y126.756 E194.53696
G0 F9000 X90.835 Y126.756
G1 F1800 X37.322 Y73.243 E198.31259
G0 F9000 X37.888 Y73.243
G1 F1800 X91.401 Y126.756 E202.08822
G0 F9000 X91.967 Y126.756
G1 F1800 X38.453 Y73.243 E205.86389
G0 F9000 X39.019 Y73.243
G1 F1800 X92.532 Y126.756 E209.63952
G0 F9000 X93.098 Y126.756
G1 F1800 X39.585 Y73.243 E213.41515
G0 F9000 X40.150 Y73.243
G1 F1800 X93.664 Y126.756 E217.19082
G0 F9000 X94.229 Y126.756
G1 F1800 X40.716 Y73.243 E220.96645
G0 F9000 X41.282 Y73.243
G1 F1800 X94.795 Y126.756 E224.74208
G0 F9000 X95.361 Y126.756
G1 F1800 X41.847 Y73.243 E228.51775
G0 F9000 X42.413 Y73.243
G1 F1800 X95.926 Y126.756 E232.29338
G0 F9000 X96.492 Y126.756
G1 F1800 X42.979 Y73.243 E236.06901
G0 F9000 X43.545 Y73.243
G1 F1800 X97.058 Y126.756 E239.84464
G0 F9000 X97.623 Y126.756
G1 F1800 X44.110 Y73.243 E243.62027
G0 F9000 X44.676 Y73.243
G1 F1800 X98.189 Y126.756 E247.39590
G0 F9000 X98.755 Y126.756
G1 F1800 X45.242 Y73.243 E251.17153
G0 F9000 X45.807 Y73.243
G1 F1800 X99.320 Y126.756 E254.94716
G0 F9000 X99.886 Y126.756
G1 F1800 X46.373 Y73.243 E258.72280
G0 F9000 X46.939 Y73.243
G1 F1800 X100.452 Y126.756 E262.49843
G0 F9000 X101.017 Y126.756
G1 F1800 X47.504 Y73.243 E266.27406
G0 F9000 X48.070 Y73.243
G1 F1800 X101.583 Y126.756 E270.04969
G0 F9000 X102.149 Y126.756
G1 F1800 X48.636 Y73.243 E273.82532
G0 F9000 X49.201 Y73.243
G1 F1800 X102.715 Y126.756 E277.60099
G0 F9000 X103.280 Y126.756
G1 F1800 X49.767 Y73.243 E281.37662
G0 F9000 X50.333 Y73.243
G1 F1800 X103.846 Y126.756 E285.15225
G0 F9000 X104.412 Y126.756
G1 F1800 X50.898 Y73.243 E288.92792
G0 F9000 X51.464 Y73.243
G1 F1800 X104.977 Y126.756 E292.70355
G0 F9000 X105.543 Y126.756
G1 F1800 X52.029 Y73.242 E296.47925
G0 F9000 X52.595 Y73.242
G1 F1800 X106.109 Y126.756 E300.25495
G0 F9000 X106.674 Y126.756
G1 F1800 X53.160 Y73.242 E304.03065
G0 F9000 X53.726 Y73.242
G1 F1800 X107.240 Y126.756 E307.80635
G0 F9000 X107.806 Y126.756
G1 F1800 X54.292 Y73.242 E311.58206
G0 F9000 X54.858 Y73.242
G1 F1800 X108.371 Y126.756 E315.35772
G0 F9000 X108.937 Y126.756
G1 F1800 X55.423 Y73.242 E319.13342
G0 F9000 X55.989 Y73.242
G1 F1800 X87.746 Y104.999 E321.37405
G0 F9000 X88.835 Y106.089
G1 F1800 X109.503 Y126.756 E322.83226
G0 F9000 X110.068 Y126.756
G1 F1800 X89.401 Y106.089 E324.29042
G0 F9000 X89.967 Y106.089
G1 F1800 X110.634 Y126.756 E325.74859
G0 F9000 X111.200 Y126.756
G1 F1800 X90.533 Y106.089 E327.20676
G0 F9000 X91.098 Y106.089
G1 F1800 X111.765 Y126.755 E328.66489
G0 F9000 X112.330 Y126.755
G1 F1800 X91.664 Y106.089 E330.12299
G0 F9000 X92.230 Y106.089
G1 F1800 X112.896 Y126.755 E331.58109
G0 F9000 X113.462 Y126.755
G1 F1800 X92.795 Y106.089 E333.03922
G0 F9000 X93.361 Y106.089
G1 F1800 X114.028 Y126.755 E334.49736
G0 F9000 X114.593 Y126.755
G1 F1800 X93.927 Y106.089 E335.95545
G0 F9000 X94.492 Y106.089
G1 F1800 X115.159 Y126.755 E337.41359
G0 F9000 X115.725 Y126.755
G1 F1800 X95.058 Y106.089 E338.87172
G0 F9000 X95.624 Y106.089
G1 F1800 X116.290 Y126.755 E340.32982
G0 F9000 X116.856 Y126.755
G1 F1800 X96.189 Y106.089 E341.78795
G0 F9000 X96.755 Y106.089
G1 F1800 X117.422 Y126.755 E343.24608
G0 F9000 X117.987 Y126.755
G1 F1800 X97.321 Y106.089 E344.70418
G0 F9000 X97.886 Y106.089
G1 F1800 X118.553 Y126.755 E346.16232
G0 F9000 X119.119 Y126.755
G1 F1800 X98.452 Y106.089 E347.62045
G0 F9000 X99.018 Y106.089
G1 F1800 X119.684 Y126.755 E349.07855
G0 F9000 X120.250 Y126.755
G1 F1800 X99.583 Y106.089 E350.53668
G0 F9000 X88.595 Y105.927
G0 X86.418 Y103.106
G1 F1800 X56.555 Y73.242 E352.64371
G0 F9000 X57.120 Y73.242
G1 F1800 X85.945 Y102.067 E354.67747
G0 F9000 X85.589 Y101.145
G1 F1800 X57.686 Y73.242 E356.64618
G0 F9000 X58.252 Y73.242
G1 F1800 X85.233 Y100.223 E358.54983
G0 F9000 X84.877 Y99.302
G1 F1800 X58.817 Y73.242 E360.38851
G0 F9000 X59.383 Y73.242
G1 F1800 X84.796 Y98.655 E362.18153
G0 F9000 X84.716 Y98.009
G1 F1800 X59.949 Y73.242 E363.92898
G0 F9000 X60.514 Y73.242
G1 F1800 X84.635 Y97.363 E365.63084
G0 F9000 X84.555 Y96.718
G1 F1800 X61.080 Y73.242 E367.28717
G0 F9000 X61.646 Y73.242
G1 F1800 X84.475 Y96.071 E368.89788
G0 F9000 X84.411 Y95.442
G1 F1800 X62.211 Y73.242 E370.46421
G0 F9000 X62.777 Y73.242
G1 F1800 X84.473 Y94.938 E371.99498
G0 F9000 X84.536 Y94.436
G1 F1800 X63.343 Y73.242 E373.49029
G0 F9000 X63.909 Y73.242
G1 F1800 X84.598 Y93.932 E374.95005
G0 F9000 X84.661 Y93.430
G1 F1800 X64.474 Y73.242 E376.37439
G0 F9000 X65.040 Y73.242
G1 F1800 X84.724 Y92.927 E377.76323
G0 F9000 X84.787 Y92.423
G1 F1800 X65.606 Y73.242 E379.11656
G0 F9000 X66.171 Y73.242
G1 F1800 X84.849 Y91.921 E380.43443
G0 F9000 X84.964 Y91.469
G1 F1800 X66.737 Y73.242 E381.72044
G0 F9000 X67.303 Y73.242
G1 F1800 X85.122 Y91.062 E382.97770
G0 F9000 X85.280 Y90.654
G1 F1800 X67.868 Y73.242 E384.20621
G0 F9000 X68.434 Y73.242
G1 F1800 X85.438 Y90.246 E385.40594
G0 F9000 X85.596 Y89.839
G1 F1800 X69.000 Y73.242 E386.57691
G0 F9000 X69.565 Y73.242
G1 F1800 X85.754 Y89.431 E387.71913
G0 F9000 X85.912 Y89.023
G1 F1800 X70.131 Y73.242 E388.83256
G0 F9000 X70.697 Y73.242
G1 F1800 X86.070 Y88.616 E389.91725
G0 F9000 X86.228 Y88.208
G1 F1800 X71.262 Y73.242 E390.97318
G0 F9000 X71.828 Y73.242
G1 F1800 X86.443 Y87.858 E392.00438
G0 F9000 X86.676 Y87.524
G1 F1800 X72.394 Y73.242 E393.01205
G0 F9000 X72.959 Y73.242
G1 F1800 X86.909 Y87.192 E393.99630
G0 F9000 X87.142 Y86.859
G1 F1800 X73.525 Y73.242 E394.95706
G0 F9000 X74.091 Y73.242
G1 F1800 X87.375 Y86.527 E395.89435
G0 F9000 X87.608 Y86.194
G1 F1800 X74.657 Y73.242 E396.80815
G0 F9000 X75.222 Y73.242
G1 F1800 X87.841 Y85.861 E397.69849
G0 F9000 X88.075 Y85.529
G1 F1800 X75.788 Y73.242 E398.56540
G0 F9000 X76.354 Y73.242
G1 F1800 X88.307 Y85.196 E399.40878
G0 F9000 X88.587 Y84.910
G1 F1800 X76.919 Y73.242 E400.23202
G0 F9000 X77.485 Y73.242
G1 F1800 X89.152 Y84.910 E401.05523
G0 F9000 X89.718 Y84.910
G1 F1800 X78.051 Y73.242 E401.87843
G0 F9000 X78.616 Y73.242
G1 F1800 X90.284 Y84.910 E402.70167
G0 F9000 X90.849 Y84.910
G1 F1800 X79.182 Y73.242 E403.52488
G0 F9000 X79.748 Y73.242
G1 F1800 X91.415 Y84.910 E404.34809
G0 F9000 X91.981 Y84.910
G1 F1800 X80.313 Y73.242 E405.17133
G0 F9000 X80.879 Y73.242
G1 F1800 X92.546 Y84.910 E405.99453
G0 F9000 X93.112 Y84.910
G1 F1800 X81.445 Y73.242 E406.81774
G0 F9000 X82.010 Y73.242
G1 F1800 X93.678 Y84.910 E407.64098
G0 F9000 X94.243 Y84.910
G1 F1800 X82.576 Y73.242 E408.46418
G0 F9000 X83.142 Y73.242
G1 F1800 X94.809 Y84.910 E409.28739
G0 F9000 X95.375 Y84.910
G1 F1800 X83.708 Y73.242 E410.11059
G0 F9000 X84.272 Y73.242
G1 F1800 X95.940 Y84.910 E410.93383
G0 F9000 X96.506 Y84.910
G1 F1800 X84.838 Y73.242 E411.75707
G0 F9000 X85.404 Y73.242
G1 F1800 X97.072 Y84.910 E412.58031
G0 F9000 X97.638 Y84.910
G1 F1800 X85.970 Y73.242 E413.40355
G0 F9000 X86.535 Y73.242
G1 F1800 X98.203 Y84.910 E414.22679
G0 F9000 X98.769 Y84.910
G1 F1800 X87.101 Y73.242 E415.05003
G0 F9000 X87.667 Y73.242
G1 F1800 X99.335 Y84.910 E415.87327
G0 F9000 X99.900 Y84.910
G1 F1800 X88.232 Y73.242 E416.69651
G0 F9000 X88.798 Y73.242
G1 F1800 X100.466 Y84.910 E417.51976
G0 F9000 X101.032 Y84.910
G1 F1800 X89.364 Y73.242 E418.34300
G0 F9000 X89.929 Y73.242
G1 F1800 X101.597 Y84.910 E419.16624
G0 F9000 X102.163 Y84.910
G1 F1800 X90.495 Y73.242 E419.98948
G0 F9000 X91.061 Y73.242
G1 F1800 X102.729 Y84.910 E420.81272
G0 F9000 X103.294 Y84.910
G1 F1800 X91.626 Y73.242 E421.63596
G0 F9000 X92.192 Y73.242
G1 F1800 X103.860 Y84.910 E422.45920
G0 F9000 X104.426 Y84.910
G1 F1800 X92.758 Y73.242 E423.28244
G0 F9000 X93.323 Y73.242
G1 F1800 X104.991 Y84.910 E424.10568
G0 F9000 X105.557 Y84.910
G1 F1800 X93.889 Y73.242 E424.92892
G0 F9000 X94.455 Y73.242
G1 F1800 X106.123 Y84.910 E425.75216
G0 F9000 X106.688 Y84.910
G1 F1800 X95.021 Y73.242 E426.57536
G0 F9000 X95.586 Y73.242
G1 F1800 X107.254 Y84.910 E427.39861
G0 F9000 X107.820 Y84.910
G1 F1800 X96.152 Y73.242 E428.22185
G0 F9000 X96.718 Y73.242
G1 F1800 X108.386 Y84.910 E429.04509
G0 F9000 X108.951 Y84.910
G1 F1800 X97.283 Y73.242 E429.86833
G0 F9000 X97.849 Y73.242
G1 F1800 X109.517 Y84.910 E430.69157
G0 F9000 X110.083 Y84.910
G1 F1800 X98.415 Y73.242 E431.51481
G0 F9000 X98.980 Y73.242
G1 F1800 X110.648 Y84.910 E432.33805
G0 F9000 X111.214 Y84.910
G1 F1800 X99.546 Y73.242 E433.16129
G0 F9000 X100.112 Y73.242
G1 F1800 X153.625 Y126.755 E436.93692
G0 F9000 X154.190 Y126.755
G1 F1800 X100.677 Y73.242 E440.71255
G0 F9000 X101.243 Y73.242
G1 F1800 X154.756 Y126.755 E444.48818
G0 F9000 X155.322 Y126.755
G1 F1800 X101.809 Y73.242 E448.26381
G0 F9000 X102.374 Y73.242
G1 F1800 X155.888 Y126.755 E452.03948
G0 F9000 X156.453 Y126.755
G1 F1800 X102.940 Y73.242 E455.81511
G0 F9000 X103.506 Y73.242
G1 F1800 X157.019 Y126.755 E459.59074
G0 F9000 X157.584 Y126.754
G1 F1800 X104.071 Y73.242 E463.36634
G0 F9000 X104.637 Y73.242
G1 F1800 X158.150 Y126.754 E467.14193
G0 F9000 X158.715 Y126.754
G1 F1800 X105.203 Y73.242 E470.91749
G0 F9000 X105.769 Y73.242
