;Generated with Cura_SteamEngine 15.01
; Default start code
G28 ; Home extruder
G1 Z15 F100
M107 ; Turn off fan
G90 ; Absolute positioning
M82 ; Extruder in absolute mode
M190 S85
; Activate all used extruder
M104 T0 S245
G92 E0 ; Reset extruder position
; Wait for all used extruders to reach temperature
M109 T0 S245
;Layer count: 23
;LAYER:0
M107
G0 F9000 X81.069 Y77.054 Z0.300
G0 X80.783 Y77.423
;TYPE:SKIRT
G1 F1800 X81.069 Y77.054 E0.02329
G1 X83.016 Y75.560 E0.14573
G1 X83.377 Y75.280 E0.16852
G1 X85.663 Y74.333 E0.29197
G1 X86.074 Y74.157 E0.31428
G1 X88.538 Y73.833 E0.43826
G1 X88.997 Y73.772 E0.46136
G1 X91.445 Y74.094 E0.58455
G1 X91.907 Y74.155 E0.60780
G1 X94.200 Y75.104 E0.73161
G1 X94.630 Y75.288 E0.75494
G1 X96.577 Y76.783 E0.87741
G1 X96.945 Y77.069 E0.90066
G1 X98.426 Y78.999 E1.02203
G1 X98.719 Y79.377 E1.04589
G1 X99.666 Y81.663 E1.16934
G1 X99.842 Y82.074 E1.19165
G1 X100.000 Y83.269 E1.25178
G1 X100.079 Y82.664 E1.28222
G1 X100.156 Y82.090 E1.31112
G1 X101.104 Y79.800 E1.43477
G1 X101.288 Y79.370 E1.45810
G1 X102.783 Y77.423 E1.58057
G1 X103.069 Y77.054 E1.60386
G1 X105.016 Y75.560 E1.72630
G1 X105.377 Y75.280 E1.74909
G1 X107.663 Y74.333 E1.87254
G1 X108.074 Y74.157 E1.89485
G1 X110.538 Y73.833 E2.01883
G1 X110.997 Y73.772 E2.04193
G1 X113.445 Y74.094 E2.16512
G1 X113.907 Y74.155 E2.18837
G1 X116.200 Y75.104 E2.31218
G1 X116.630 Y75.288 E2.33551
G1 X118.577 Y76.783 E2.45798
G1 X118.945 Y77.069 E2.48123
G1 X120.426 Y78.999 E2.60260
G1 X120.719 Y79.377 E2.62646
G1 X121.666 Y81.663 E2.74991
G1 X121.842 Y82.074 E2.77222
G1 X122.200 Y84.790 E2.90889
G1 X122.200 Y115.210 E4.42655
G1 X121.920 Y117.336 E4.53353
G1 X121.843 Y117.909 E4.56238
G1 X120.895 Y120.200 E4.68607
G1 X120.711 Y120.630 E4.70941
G1 X119.216 Y122.577 E4.83188
G1 X118.930 Y122.944 E4.85509
G1 X117.001 Y124.426 E4.97645
G1 X116.623 Y124.720 E5.00034
G1 X114.354 Y125.658 E5.12283
G1 X113.925 Y125.842 E5.14612
G1 X111.463 Y126.167 E5.27002
G1 X111.002 Y126.228 E5.29322
G1 X108.553 Y125.905 E5.41646
G1 X108.092 Y125.844 E5.43966
G1 X105.800 Y124.895 E5.56342
G1 X105.370 Y124.711 E5.58675
G1 X103.423 Y123.216 E5.70922
G1 X103.055 Y122.930 E5.73247
G1 X101.561 Y120.985 E5.85483
G1 X101.279 Y120.623 E5.87773
G1 X100.333 Y118.335 E6.00125
G1 X100.157 Y117.925 E6.02351
G1 X100.000 Y116.730 E6.08364
G1 X99.920 Y117.336 E6.11413
G1 X99.843 Y117.909 E6.14298
G1 X98.895 Y120.200 E6.26667
G1 X98.711 Y120.630 E6.29001
G1 X97.216 Y122.577 E6.41248
G1 X96.930 Y122.944 E6.43569
G1 X95.001 Y124.426 E6.55705
G1 X94.623 Y124.720 E6.58094
G1 X92.354 Y125.658 E6.70344
G1 X91.925 Y125.842 E6.72672
G1 X89.463 Y126.167 E6.85062
G1 X89.002 Y126.228 E6.87382
G1 X86.553 Y125.905 E6.99706
G1 X86.092 Y125.844 E7.02026
G1 X83.800 Y124.895 E7.14402
G1 X83.370 Y124.711 E7.16735
G1 X81.423 Y123.216 E7.28982
G1 X81.055 Y122.930 E7.31308
G1 X79.561 Y120.985 E7.43543
G1 X79.279 Y120.623 E7.45833
G1 X78.333 Y118.335 E7.58185
G1 X78.157 Y117.925 E7.60411
G1 X77.800 Y115.209 E7.74078
G1 X77.800 Y84.791 E9.25834
G1 X78.079 Y82.664 E9.36536
G1 X78.156 Y82.090 E9.39425
G1 X79.104 Y79.800 E9.51791
G1 X79.288 Y79.370 E9.54124
G1 X80.783 Y77.423 E9.66371
G1 F2400 E5.66371
G0 F9000 X83.770 Y79.772
;TYPE:WALL-INNER
G1 F2400 E9.66371
G1 F1800 X85.306 Y78.593 E9.76031
G1 X87.088 Y77.856 E9.85652
G1 X89.001 Y77.605 E9.95278
G1 X90.916 Y77.857 E10.04914
G1 X92.695 Y78.593 E10.14519
G1 X94.227 Y79.770 E10.24158
G1 X95.406 Y81.306 E10.33818
G1 X96.142 Y83.085 E10.43423
G1 X96.400 Y85.040 E10.53261
G1 X96.400 Y114.960 E12.02533
G1 X96.153 Y116.834 E12.11963
G1 X96.142 Y116.916 E12.12376
G1 X95.406 Y118.695 E12.21981
G1 X94.229 Y120.227 E12.31619
G1 X92.694 Y121.406 E12.41276
G1 X90.911 Y122.143 E12.50901
G1 X89.000 Y122.395 E12.60517
G1 X87.083 Y122.142 E12.70164
G1 X85.305 Y121.406 E12.79765
G1 X83.771 Y120.229 E12.89411
G1 X82.593 Y118.694 E12.99064
G1 X81.856 Y116.911 E13.08690
G1 X81.600 Y114.960 E13.18507
G1 X81.600 Y85.040 E14.67778
G1 X81.846 Y83.165 E14.77213
G1 X81.857 Y83.083 E14.77626
G1 X82.593 Y81.305 E14.87226
G1 X83.770 Y79.772 E14.96869
G0 F9000 X87.440 Y83.440
G1 F1800 X87.090 Y83.896 E14.99736
G1 X86.869 Y84.429 E15.02615
G1 X86.795 Y85.000 E15.05488
G1 X86.869 Y85.570 E15.08355
G1 X87.090 Y86.103 E15.11234
G1 X87.440 Y86.559 E15.14102
G1 X87.896 Y86.909 E15.16970
G1 X88.429 Y87.130 E15.19848
G1 X89.000 Y87.204 E15.22721
G1 X89.570 Y87.130 E15.25588
G1 X90.103 Y86.909 E15.28467
G1 X90.559 Y86.559 E15.31335
G1 X90.909 Y86.103 E15.34203
G1 X91.130 Y85.570 E15.37082
G1 X91.204 Y85.000 E15.39949
G1 X91.130 Y84.429 E15.42822
G1 X90.909 Y83.896 E15.45700
G1 X90.559 Y83.440 E15.48568
G1 X90.103 Y83.090 E15.51436
G1 X89.570 Y82.869 E15.54315
G1 X89.000 Y82.795 E15.57182
G1 X88.429 Y82.869 E15.60055
G1 X87.896 Y83.090 E15.62934
G1 X87.440 Y83.440 E15.65801
G0 F9000 X86.797 Y85.000
G0 X87.442 Y86.557
G0 X89.000 Y112.795
G1 F1800 X88.429 Y112.869 E15.68674
G1 X87.896 Y113.090 E15.71553
G1 X87.440 Y113.440 E15.74421
G1 X87.090 Y113.896 E15.77288
G1 X86.869 Y114.429 E15.80167
G1 X86.795 Y115.000 E15.83040
G1 X86.869 Y115.570 E15.85907
G1 X87.090 Y116.103 E15.88786
G1 X87.440 Y116.559 E15.91654
G1 X87.896 Y116.909 E15.94522
G1 X88.429 Y117.130 E15.97400
G1 X89.000 Y117.204 E16.00273
G1 X89.570 Y117.130 E16.03140
G1 X90.103 Y116.909 E16.06019
G1 X90.559 Y116.559 E16.08887
G1 X90.909 Y116.103 E16.11755
G1 X91.130 Y115.570 E16.14634
G1 X91.204 Y115.000 E16.17501
G1 X91.130 Y114.429 E16.20374
G1 X90.909 Y113.896 E16.23252
G1 X90.559 Y113.440 E16.26120
G1 X90.103 Y113.090 E16.28988
G1 X89.570 Y112.869 E16.31867
G1 X89.000 Y112.795 E16.34734
G0 F9000 X89.000 Y113.198
;TYPE:WALL-OUTER
G1 F1800 X88.533 Y113.259 E16.37084
G1 X88.098 Y113.439 E16.39433
G1 X87.725 Y113.725 E16.41778
G1 X87.439 Y114.098 E16.44123
G1 X87.259 Y114.533 E16.46471
G1 X87.198 Y115.000 E16.48821
G1 X87.259 Y115.466 E16.51166
G1 X87.439 Y115.901 E16.53514
G1 X87.725 Y116.274 E16.55859
G1 X88.098 Y116.560 E16.58204
G1 X88.533 Y116.740 E16.60553
G1 X89.000 Y116.801 E16.62903
G1 X89.466 Y116.740 E16.65247
G1 X89.901 Y116.560 E16.67596
G1 X90.274 Y116.274 E16.69941
G1 X90.560 Y115.901 E16.72286
G1 X90.740 Y115.466 E16.74635
G1 X90.801 Y115.000 E16.76979
G1 X90.740 Y114.533 E16.79329
G1 X90.560 Y114.098 E16.81678
G1 X90.274 Y113.725 E16.84023
G1 X89.901 Y113.439 E16.86368
G1 X89.466 Y113.259 E16.88716
G1 X89.000 Y113.198 E16.91061
G0 F9000 X89.038 Y112.902
G0 X81.500 Y114.961
G0 X81.200 Y114.989
G1 F1800 X81.200 Y85.011 E18.40622
G1 X81.466 Y82.982 E18.50831
G1 X82.237 Y81.121 E18.60881
G1 X83.473 Y79.502 E18.71043
G1 X83.485 Y79.487 E18.71139
G1 X85.086 Y78.257 E18.81212
G1 X86.965 Y77.474 E18.91367
G1 X86.983 Y77.466 E18.91466
G1 X89.000 Y77.201 E19.01615
G1 X91.017 Y77.466 E19.11764
G1 X92.879 Y78.237 E19.21819
G1 X94.497 Y79.473 E19.31977
G1 X94.512 Y79.485 E19.32073
G1 X95.742 Y81.086 E19.42145
G1 X96.525 Y82.965 E19.52301
G1 X96.533 Y82.984 E19.52404
G1 X96.800 Y85.011 E19.62604
G1 X96.800 Y114.989 E21.12165
G1 X96.533 Y117.017 E21.22370
G1 X95.762 Y118.879 E21.32424
G1 X94.526 Y120.497 E21.42582
G1 X94.514 Y120.512 E21.42678
G1 X92.914 Y121.742 E21.52746
G1 X91.034 Y122.525 E21.62907
G1 X91.015 Y122.533 E21.63010
G1 X89.000 Y122.799 E21.73150
G1 X86.982 Y122.533 E21.83305
G1 X85.121 Y121.762 E21.93355
G1 X83.501 Y120.525 E22.03524
G1 X82.257 Y118.914 E22.13678
G1 X81.474 Y117.034 E22.23839
G1 X81.466 Y117.015 E22.23941
G1 X81.200 Y114.989 E22.34136
G0 F9000 X81.500 Y114.961
G0 X88.418 Y87.016
G0 X88.533 Y86.740
G1 F1800 X89.000 Y86.801 E22.36486
G1 X89.466 Y86.740 E22.38830
G1 X89.901 Y86.560 E22.41179
G1 X90.274 Y86.274 E22.43524
G1 X90.560 Y85.901 E22.45869
G1 X90.740 Y85.466 E22.48218
G1 X90.801 Y85.000 E22.50562
G1 X90.740 Y84.533 E22.52912
G1 X90.560 Y84.098 E22.55261
G1 X90.274 Y83.725 E22.57606
G1 X89.901 Y83.439 E22.59951
G1 X89.466 Y83.259 E22.62299
G1 X89.000 Y83.198 E22.64644
G1 X88.533 Y83.259 E22.66994
G1 X88.098 Y83.439 E22.69342
G1 X87.725 Y83.725 E22.71687
G1 X87.439 Y84.098 E22.74032
G1 X87.259 Y84.533 E22.76381
G1 X87.198 Y85.000 E22.78731
G1 X87.259 Y85.466 E22.81075
G1 X87.439 Y85.901 E22.83424
G1 X87.725 Y86.274 E22.85769
G1 X88.098 Y86.560 E22.88114
G1 X88.533 Y86.740 E22.90463
G0 F9000 X88.724 Y87.310
;TYPE:SKIN
G1 F1800 X96.259 Y94.845 E23.43626
G0 F9000 X96.259 Y95.411
G1 F1800 X87.920 Y87.071 E24.02466
G0 F9000 X89.289 Y87.309
G1 F1800 X96.259 Y94.279 E24.51643
G0 F9000 X96.259 Y93.714
G1 F1800 X89.752 Y87.206 E24.97557
G0 F9000 X90.151 Y87.040
G1 F1800 X96.259 Y93.148 E25.40652
G0 F9000 X96.259 Y92.582
G1 F1800 X90.475 Y86.798 E25.81461
G0 F9000 X90.763 Y86.520
G1 F1800 X96.259 Y92.017 E26.20242
G0 F9000 X96.259 Y91.451
G1 F1800 X91.008 Y86.200 E26.57291
G0 F9000 X91.182 Y85.808
G1 F1800 X96.259 Y90.885 E26.93112
G0 F9000 X96.259 Y90.320
G1 F1800 X91.298 Y85.358 E27.28118
G0 F9000 X91.321 Y84.816
G1 F1800 X96.259 Y89.754 E27.62958
G0 F9000 X96.259 Y89.188
G1 F1800 X91.125 Y84.054 E27.99181
G0 F9000 X89.943 Y82.872
G1 F1800 X85.666 Y78.595 E28.29358
G0 F9000 X85.289 Y78.783
G1 F1800 X89.181 Y82.676 E28.56821
G0 F9000 X88.639 Y82.699
G1 F1800 X84.968 Y79.029 E28.82719
G0 F9000 X84.649 Y79.275
G1 F1800 X88.189 Y82.815 E29.07695
G0 F9000 X87.797 Y82.988
G1 F1800 X84.328 Y79.520 E29.32168
G0 F9000 X84.008 Y79.765
G1 F1800 X87.476 Y83.234 E29.56640
G0 F9000 X87.199 Y83.522
G1 F1800 X83.729 Y80.052 E29.81122
G0 F9000 X83.484 Y80.373
G1 F1800 X86.958 Y83.847 E30.05633
G0 F9000 X86.792 Y84.246
G1 F1800 X83.238 Y80.692 E30.30709
G0 F9000 X82.993 Y81.013
G1 F1800 X86.690 Y84.710 E30.56793
G0 F9000 X86.688 Y85.274
G1 F1800 X82.747 Y81.332 E30.84602
G0 F9000 X82.570 Y81.722
G1 F1800 X86.927 Y86.078 E31.15340
G0 F9000 X81.739 Y85.982
G1 F1800 X96.260 Y100.503 E32.17793
G0 F9000 X96.260 Y101.068
G1 F1800 X81.739 Y86.547 E33.20247
G0 F9000 X81.739 Y87.113
G1 F1800 X96.260 Y101.634 E34.22700
G0 F9000 X96.260 Y102.200
G1 F1800 X81.739 Y87.679 E35.25154
G0 F9000 X81.739 Y88.244
G1 F1800 X96.260 Y102.765 E36.27607
G0 F9000 X96.260 Y103.331
G1 F1800 X81.739 Y88.810 E37.30061
G0 F9000 X81.739 Y89.376
G1 F1800 X96.260 Y103.897 E38.32514
G0 F9000 X96.260 Y104.463
G1 F1800 X81.739 Y89.941 E39.34971
G0 F9000 X81.739 Y90.507
G1 F1800 X96.260 Y105.028 E40.37425
G0 F9000 X96.260 Y105.594
G1 F1800 X81.739 Y91.073 E41.39878
G0 F9000 X81.739 Y91.638
G1 F1800 X96.260 Y106.160 E42.42335
G0 F9000 X96.260 Y106.725
G1 F1800 X81.739 Y92.204 E43.44789
G0 F9000 X81.739 Y92.770
G1 F1800 X96.260 Y107.291 E44.47242
G0 F9000 X96.260 Y107.857
G1 F1800 X81.739 Y93.335 E45.49699
G0 F9000 X81.739 Y93.901
G1 F1800 X96.260 Y108.422 E46.52153
G0 F9000 X96.260 Y108.988
G1 F1800 X81.739 Y94.467 E47.54606
G0 F9000 X81.739 Y95.033
G1 F1800 X96.260 Y109.554 E48.57060
G0 F9000 X96.260 Y110.119
G1 F1800 X81.739 Y95.598 E49.59513
G0 F9000 X81.739 Y96.164
G1 F1800 X96.260 Y110.685 E50.61967
G0 F9000 X96.260 Y111.251
G1 F1800 X81.739 Y96.730 E51.64420
G0 F9000 X81.739 Y97.295
G1 F1800 X96.260 Y111.816 E52.66874
G0 F9000 X96.260 Y112.382
G1 F1800 X81.739 Y97.861 E53.69327
G0 F9000 X81.739 Y98.427
G1 F1800 X96.260 Y112.948 E54.71781
G0 F9000 X96.260 Y113.513
G1 F1800 X81.739 Y98.992 E55.74234
G0 F9000 X81.739 Y99.558
G1 F1800 X96.260 Y114.079 E56.76688
G0 F9000 X96.260 Y114.645
G1 F1800 X81.739 Y100.124 E57.79141
G0 F9000 X81.739 Y100.689
G1 F1800 X96.230 Y115.181 E58.81387
G0 F9000 X96.164 Y115.680
G1 F1800 X81.739 Y101.255 E59.83163
G0 F9000 X81.739 Y101.821
G1 F1800 X96.098 Y116.180 E60.84473
G0 F9000 X96.032 Y116.680
G1 F1800 X81.739 Y102.386 E61.85322
G0 F9000 X81.739 Y102.952
G1 F1800 X95.906 Y117.119 E62.85278
G0 F9000 X95.740 Y117.519
G1 F1800 X81.739 Y103.518 E63.84062
G0 F9000 X81.739 Y104.083
G1 F1800 X95.575 Y117.919 E64.81683
G0 F9000 X95.409 Y118.320
G1 F1800 X91.114 Y114.024 E65.11990
G0 F9000 X91.319 Y114.795
G1 F1800 X95.224 Y118.700 E65.39542
G0 F9000 X94.979 Y119.020
G1 F1800 X91.300 Y115.342 E65.65496
G0 F9000 X91.187 Y115.795
G1 F1800 X94.733 Y119.340 E65.90511
G0 F9000 X94.487 Y119.660
G1 F1800 X91.016 Y116.189 E66.15001
G0 F9000 X90.771 Y116.509
G1 F1800 X94.241 Y119.980 E66.39487
G0 F9000 X93.954 Y120.259
G1 F1800 X90.486 Y116.790 E66.63959
G0 F9000 X90.164 Y117.034
G1 F1800 X93.635 Y120.505 E66.88449
G0 F9000 X93.314 Y120.750
G1 F1800 X89.765 Y117.200 E67.13493
G0 F9000 X89.304 Y117.306
G1 F1800 X92.995 Y120.996 E67.39531
G0 F9000 X92.674 Y121.241
G1 F1800 X88.745 Y117.312 E67.67252
G0 F9000 X87.950 Y117.083
G1 F1800 X92.288 Y121.420 E67.97856
G0 F9000 X91.887 Y121.586
G1 F1800 X81.739 Y111.437 E68.69459
G0 F9000 X81.739 Y110.872
G1 F1800 X86.915 Y116.048 E69.05978
G0 F9000 X86.686 Y115.253
G1 F1800 X81.739 Y110.306 E69.40882
G0 F9000 X81.739 Y109.740
G1 F1800 X86.692 Y114.694 E69.75832
G0 F9000 X86.798 Y114.233
G1 F1800 X81.739 Y109.175 E70.11522
G0 F9000 X81.739 Y108.609
G1 F1800 X86.964 Y113.834 E70.48387
G0 F9000 X87.208 Y113.512
G1 F1800 X81.739 Y108.043 E70.86974
G0 F9000 X81.739 Y107.478
G1 F1800 X87.487 Y113.226 E71.27529
G0 F9000 X87.807 Y112.980
G1 F1800 X81.739 Y106.912 E71.70342
G0 F9000 X81.739 Y106.346
G1 F1800 X88.202 Y112.809 E72.15942
G0 F9000 X88.654 Y112.696
G1 F1800 X81.739 Y105.781 E72.64731
G0 F9000 X81.739 Y105.215
G1 F1800 X89.202 Y112.678 E73.17387
G0 F9000 X89.972 Y112.883
G1 F1800 X81.739 Y104.649 E73.75479
G0 F9000 X81.739 Y112.003
G1 F1800 X91.487 Y121.751 E74.44256
G0 F9000 X91.087 Y121.917
G1 F1800 X81.739 Y112.569 E75.10211
G0 F9000 X81.739 Y113.134
G1 F1800 X90.641 Y122.036 E75.73020
G0 F9000 X90.141 Y122.102
G1 F1800 X81.739 Y113.700 E76.32300
G0 F9000 X81.739 Y114.266
G1 F1800 X89.642 Y122.168 E76.88057
G0 F9000 X89.142 Y122.234
G1 F1800 X81.739 Y114.832 E77.40285
G0 F9000 X81.806 Y115.464
G1 F1800 X88.534 Y122.192 E77.87755
G0 F9000 X87.882 Y122.106
G1 F1800 X81.892 Y116.116 E78.30018
G0 F9000 X81.977 Y116.767
G1 F1800 X87.230 Y122.019 E78.67077
G0 F9000 X86.317 Y121.673
G1 F1800 X82.325 Y117.680 E78.95246
G0 F9000 X82.760 Y118.681
G1 F1800 X85.315 Y121.236 E79.13273
G0 F9000 X87.092 Y113.897
G0 X88.430 Y112.871
G0 X96.259 Y99.936
G1 F1800 X81.739 Y85.416 E80.15719
G0 F9000 X81.762 Y84.874
G1 F1800 X96.259 Y99.371 E81.18004
G0 F9000 X96.259 Y98.805
G1 F1800 X81.827 Y84.373 E82.19829
G0 F9000 X81.893 Y83.873
G1 F1800 X96.259 Y98.239 E83.21189
G0 F9000 X96.259 Y97.674
G1 F1800 X81.959 Y83.373 E84.22087
G0 F9000 X82.073 Y82.922
G1 F1800 X96.259 Y97.108 E85.22177
G0 F9000 X96.259 Y96.542
G1 F1800 X82.239 Y82.522 E86.21095
G0 F9000 X82.405 Y82.122
G1 F1800 X96.259 Y95.977 E87.18846
G0 F9000 X96.259 Y88.623
G1 F1800 X86.066 Y78.430 E87.90763
G0 F9000 X86.467 Y78.264
G1 F1800 X96.259 Y88.057 E88.59855
G0 F9000 X96.259 Y87.491
G1 F1800 X86.867 Y78.099 E89.26121
G0 F9000 X87.302 Y77.968
G1 F1800 X96.259 Y86.926 E89.89321
G0 F9000 X96.259 Y86.360
G1 F1800 X87.802 Y77.902 E90.48993
G0 F9000 X88.302 Y77.836
G1 F1800 X96.259 Y85.794 E91.05137
G0 F9000 X96.259 Y85.228
G1 F1800 X88.802 Y77.771 E91.57750
G0 F9000 X89.393 Y77.797
G1 F1800 X96.201 Y84.604 E92.05781
G0 F9000 X96.114 Y83.952
G1 F1800 X90.045 Y77.883 E92.48601
G0 F9000 X90.697 Y77.969
G1 F1800 X96.029 Y83.301 E92.86221
G0 F9000 X95.716 Y82.422
G1 F1800 X91.575 Y78.282 E93.15435
G0 F9000 X92.540 Y78.681
G1 F1800 X95.316 Y81.457 E93.35021
G1 F2400 E89.35021
G0 F9000 X103.846 Y83.165
;TYPE:WALL-INNER
G1 F2400 E93.35021
G1 F1800 X103.857 Y83.083 E93.35434
G1 X104.593 Y81.305 E93.45034
G1 X105.770 Y79.772 E93.54676
G1 X107.306 Y78.593 E93.64337
G1 X109.088 Y77.856 E93.73958
G1 X111.001 Y77.605 E93.83583
G1 X112.916 Y77.857 E93.93220
G1 X114.695 Y78.593 E94.02825
G1 X116.227 Y79.770 E94.12463
G1 X117.406 Y81.306 E94.22123
G1 X118.142 Y83.085 E94.31729
G1 X118.400 Y85.040 E94.41567
G1 X118.400 Y114.960 E95.90838
G1 X118.153 Y116.834 E96.00268
G1 X118.142 Y116.916 E96.00681
G1 X117.406 Y118.695 E96.10286
G1 X116.229 Y120.227 E96.19925
G1 X114.694 Y121.406 E96.29581
G1 X112.911 Y122.143 E96.39206
G1 X111.000 Y122.395 E96.48823
G1 X109.083 Y122.142 E96.58470
G1 X107.305 Y121.406 E96.68070
G1 X105.771 Y120.229 E96.77717
G1 X104.593 Y118.694 E96.87370
G1 X103.856 Y116.911 E96.96995
G1 X103.600 Y114.960 E97.06812
