;Generated with Cura_SteamEngine 15.01
; Default start code
G28 ; Home extruder
G1 Z15 F100
M107 ; Turn off fan
G90 ; Absolute positioning
M82 ; Extruder in absolute mode
M190 S85
; Activate all used extruder
M104 T0 S245
G92 E0 ; Reset extruder position
; Wait for all used extruders to reach temperature
M109 T0 S245
;Layer count: 8
;LAYER:0
M107
G0 F9000 X18.008 Y75.284 Z0.300
G0 X17.551 Y75.471
;TYPE:SKIRT
G1 F1800 X18.008 Y75.284 E0.02463
G1 X19.722 Y75.060 E0.11087
G1 X180.208 Y75.050 E8.11755
G1 X181.528 Y75.222 E8.18396
G1 X182.015 Y75.292 E8.20851
G1 X183.396 Y75.863 E8.28307
G1 X183.860 Y76.053 E8.30808
G1 X185.076 Y76.988 E8.38461
G1 X185.463 Y77.286 E8.40898
G1 X186.692 Y78.885 E8.50959
G1 X187.278 Y80.301 E8.58605
G1 X187.465 Y80.757 E8.61064
G1 X187.690 Y82.470 E8.69683
G1 X187.700 Y117.429 E10.44094
G1 X187.573 Y118.552 E10.49733
G1 X187.525 Y118.972 E10.51842
G1 X187.094 Y120.202 E10.58344
G1 X186.959 Y120.593 E10.60408
G1 X186.257 Y121.711 E10.66994
G1 X186.031 Y122.068 E10.69102
G1 X184.812 Y123.286 E10.77699
G1 X183.706 Y123.981 E10.84216
G1 X183.357 Y124.202 E10.86277
G1 X182.110 Y124.640 E10.92871
G1 X181.710 Y124.777 E10.94980
G1 X180.241 Y124.943 E11.02356
G1 X19.791 Y124.950 E19.02844
G1 X18.470 Y124.776 E19.09491
G1 X17.983 Y124.707 E19.11945
G1 X16.592 Y124.131 E19.19456
G1 X16.141 Y123.946 E19.21888
G1 X14.537 Y122.714 E19.31979
G1 X13.608 Y121.506 E19.39582
G1 X13.307 Y121.114 E19.42047
G1 X12.721 Y119.697 E19.49698
G1 X12.534 Y119.241 E19.52156
G1 X12.310 Y117.529 E19.60770
G1 X12.300 Y82.542 E21.35321
G1 X12.472 Y81.222 E21.41962
G1 X12.542 Y80.733 E21.44427
G1 X13.118 Y79.342 E21.51938
G1 X13.303 Y78.891 E21.54370
G1 X14.536 Y77.286 E21.64468
G1 X16.135 Y76.057 E21.74529
G1 X17.551 Y75.471 E21.82175
G1 F2400 E17.82175
G0 F9000 X18.989 Y78.988
;TYPE:WALL-INNER
G1 F2400 E21.82175
G1 F1800 X19.970 Y78.860 E21.87110
G1 X179.960 Y78.850 E29.85304
G1 X181.007 Y78.987 E29.90572
G1 X181.946 Y79.376 E29.95643
G1 X182.753 Y79.996 E30.00720
G1 X183.374 Y80.805 E30.05808
G1 X183.761 Y81.739 E30.10852
G1 X183.890 Y82.720 E30.15788
G1 X183.900 Y117.219 E31.87904
G1 X183.799 Y118.116 E31.92408
G1 X183.509 Y118.943 E31.96780
G1 X183.046 Y119.679 E32.01118
G1 X182.429 Y120.296 E32.05471
G1 X181.689 Y120.761 E32.09832
G1 X180.868 Y121.048 E32.14171
G1 X180.029 Y121.143 E32.18383
G1 X20.040 Y121.150 E40.16572
G1 X18.994 Y121.012 E40.21835
G1 X18.053 Y120.623 E40.26915
G1 X17.246 Y120.003 E40.31992
G1 X16.624 Y119.194 E40.37084
G1 X16.238 Y118.261 E40.42121
G1 X16.110 Y117.280 E40.47057
G1 X16.100 Y82.790 E42.19128
G1 X16.237 Y81.743 E42.24396
G1 X16.626 Y80.803 E42.29471
G1 X17.246 Y79.996 E42.34549
G1 X18.055 Y79.375 E42.39637
G1 X18.989 Y78.988 E42.44681
G0 F9000 X20.000 Y98.045
G1 F1800 X19.428 Y98.119 E42.47558
G1 X18.898 Y98.340 E42.50423
G1 X18.440 Y98.690 E42.53299
G1 X18.090 Y99.146 E42.56167
G1 X17.870 Y99.678 E42.59039
G1 X17.794 Y100.250 E42.61918
G1 X17.870 Y100.821 E42.64791
G1 X18.090 Y101.353 E42.67664
G1 X18.440 Y101.809 E42.70531
G1 X18.898 Y102.159 E42.73407
G1 X19.428 Y102.380 E42.76272
G1 X20.000 Y102.454 E42.79150
G1 X20.570 Y102.380 E42.82017
G1 X21.103 Y102.159 E42.84896
G1 X21.559 Y101.809 E42.87764
G1 X21.909 Y101.353 E42.90632
G1 X22.130 Y100.820 E42.93510
G1 X22.204 Y100.250 E42.96378
G1 X22.130 Y99.679 E42.99250
G1 X21.909 Y99.146 E43.02129
G1 X21.559 Y98.690 E43.04997
G1 X21.103 Y98.340 E43.07865
G1 X20.570 Y98.119 E43.10743
G1 X20.000 Y98.045 E43.13611
G0 F9000 X177.794 Y100.250
G1 F1800 X177.870 Y100.821 E43.16485
G1 X178.090 Y101.353 E43.19357
G1 X178.440 Y101.809 E43.22225
G1 X178.896 Y102.159 E43.25093
G1 X179.429 Y102.380 E43.27971
G1 X180.000 Y102.454 E43.30844
G1 X180.571 Y102.380 E43.33717
G1 X181.101 Y102.159 E43.36581
G1 X181.559 Y101.809 E43.39457
G1 X181.909 Y101.353 E43.42325
G1 X182.129 Y100.821 E43.45197
G1 X182.205 Y100.250 E43.48071
G1 X182.129 Y99.678 E43.50950
G1 X181.909 Y99.146 E43.53822
G1 X181.559 Y98.690 E43.56690
G1 X181.101 Y98.340 E43.59566
G1 X180.571 Y98.119 E43.62431
G1 X180.000 Y98.045 E43.65303
G1 X179.429 Y98.119 E43.68176
G1 X178.896 Y98.340 E43.71054
G1 X178.440 Y98.690 E43.73922
G1 X178.090 Y99.146 E43.76790
G1 X177.870 Y99.678 E43.79662
G1 X177.794 Y100.250 E43.82541
G0 F9000 X178.197 Y100.250
;TYPE:WALL-OUTER
G1 F1800 X178.259 Y100.716 E43.84886
G1 X178.439 Y101.151 E43.87235
G1 X178.725 Y101.524 E43.89580
G1 X179.098 Y101.810 E43.91925
G1 X179.533 Y101.990 E43.94274
G1 X180.000 Y102.051 E43.96623
G1 X180.466 Y101.990 E43.98968
G1 X180.900 Y101.810 E44.01312
G1 X181.274 Y101.524 E44.03661
G1 X181.560 Y101.151 E44.06006
G1 X181.740 Y100.716 E44.08355
G1 X181.802 Y100.250 E44.10700
G1 X181.740 Y99.783 E44.13050
G1 X181.560 Y99.348 E44.15399
G1 X181.274 Y98.975 E44.17744
G1 X180.900 Y98.689 E44.20093
G1 X180.466 Y98.509 E44.22437
G1 X180.000 Y98.448 E44.24782
G1 X179.533 Y98.509 E44.27131
G1 X179.098 Y98.689 E44.29480
G1 X178.725 Y98.975 E44.31825
G1 X178.439 Y99.348 E44.34170
G1 X178.259 Y99.783 E44.36519
G1 X178.197 Y100.250 E44.38869
G0 F9000 X177.900 Y100.211
G0 X178.092 Y101.352
G0 X184.000 Y117.230
G0 X184.300 Y117.237
G1 F1800 X184.191 Y118.206 E44.43734
G1 X183.885 Y119.078 E44.48344
G1 X183.872 Y119.117 E44.48550
G1 X183.361 Y119.930 E44.53340
G1 X182.680 Y120.611 E44.58145
G1 X181.868 Y121.121 E44.62929
G1 X180.993 Y121.428 E44.67555
G1 X180.958 Y121.440 E44.67740
G1 X180.048 Y121.543 E44.72309
G1 X20.011 Y121.550 E52.70737
G1 X18.933 Y121.408 E52.76161
G1 X18.890 Y121.402 E52.76378
G1 X17.851 Y120.972 E52.81988
G1 X16.961 Y120.288 E52.87588
G1 X16.276 Y119.398 E52.93191
G1 X15.847 Y118.361 E52.98790
G1 X15.710 Y117.309 E53.04083
G1 X15.700 Y82.761 E54.76443
G1 X15.841 Y81.683 E54.81867
G1 X15.847 Y81.640 E54.82084
G1 X16.277 Y80.601 E54.87694
G1 X16.961 Y79.711 E54.93294
G1 X17.851 Y79.027 E54.98894
G1 X18.890 Y78.597 E55.04504
G1 X19.941 Y78.460 E55.09792
G1 X179.989 Y78.450 E63.08275
G1 X181.066 Y78.591 E63.13694
G1 X181.111 Y78.597 E63.13920
G1 X182.148 Y79.026 E63.19519
G1 X183.038 Y79.711 E63.25122
G1 X183.722 Y80.601 E63.30722
G1 X184.152 Y81.640 E63.36332
G1 X184.290 Y82.691 E63.41621
G1 X184.300 Y117.237 E65.13971
G0 F9000 X184.000 Y117.230
G0 X22.097 Y100.288
G0 X21.801 Y100.250
G1 F1800 X21.740 Y99.783 E65.16321
G1 X21.560 Y99.348 E65.18670
G1 X21.274 Y98.975 E65.21015
G1 X20.901 Y98.689 E65.23360
G1 X20.466 Y98.509 E65.25708
G1 X20.000 Y98.448 E65.28053
G1 X19.533 Y98.509 E65.30403
G1 X19.099 Y98.689 E65.32747
G1 X18.725 Y98.975 E65.35096
G1 X18.439 Y99.348 E65.37441
G1 X18.259 Y99.783 E65.39789
G1 X18.197 Y100.250 E65.42140
G1 X18.259 Y100.716 E65.44485
G1 X18.439 Y101.151 E65.46834
G1 X18.725 Y101.524 E65.49179
G1 X19.099 Y101.810 E65.51528
G1 X19.533 Y101.990 E65.53872
G1 X20.000 Y102.051 E65.56221
G1 X20.466 Y101.990 E65.58566
G1 X20.901 Y101.810 E65.60915
G1 X21.274 Y101.524 E65.63260
G1 X21.560 Y101.151 E65.65605
G1 X21.740 Y100.716 E65.67953
G1 X21.801 Y100.250 E65.70298
G0 F9000 X22.327 Y100.109
;TYPE:SKIN
G1 F1800 X43.226 Y121.007 E67.17748
G0 F9000 X43.791 Y121.007
G1 F1800 X22.153 Y99.369 E68.70416
G0 F9000 X20.878 Y98.094
G1 F1800 X16.242 Y93.459 E69.03122
G0 F9000 X16.242 Y94.024
G1 F1800 X20.138 Y97.920 E69.30610
G0 F9000 X19.606 Y97.954
G1 F1800 X16.242 Y94.590 E69.54345
G0 F9000 X16.243 Y95.156
G1 F1800 X19.162 Y98.075 E69.74940
G0 F9000 X18.775 Y98.254
G1 F1800 X16.243 Y95.722 E69.92805
G0 F9000 X16.243 Y96.288
G1 F1800 X18.454 Y98.499 E70.08405
G0 F9000 X18.183 Y98.794
G1 F1800 X16.243 Y96.853 E70.22096
G0 F9000 X16.243 Y97.419
G1 F1800 X17.947 Y99.123 E70.34119
G0 F9000 X17.782 Y99.523
G1 F1800 X16.244 Y97.985 E70.44970
G0 F9000 X16.244 Y98.551
G1 F1800 X17.686 Y99.993 E70.55144
G0 F9000 X17.694 Y100.567
G1 F1800 X16.244 Y99.117 E70.65375
G0 F9000 X16.244 Y99.682
G1 F1800 X17.956 Y101.394 E70.77454
G0 F9000 X18.855 Y102.293
G1 F1800 X37.569 Y121.008 E72.09495
G0 F9000 X37.004 Y121.008
G1 F1800 X16.245 Y100.249 E73.55961
G0 F9000 X16.245 Y100.815
G1 F1800 X36.438 Y121.008 E74.98433
G0 F9000 X35.872 Y121.008
G1 F1800 X16.245 Y101.380 E76.36916
G0 F9000 X16.245 Y101.946
G1 F1800 X35.307 Y121.008 E77.71408
G0 F9000 X34.741 Y121.008
G1 F1800 X16.245 Y102.512 E79.01908
G0 F9000 X16.245 Y103.078
G1 F1800 X34.175 Y121.008 E80.28414
G0 F9000 X33.610 Y121.008
G1 F1800 X16.245 Y103.644 E81.50930
G0 F9000 X16.245 Y104.209
G1 F1800 X33.044 Y121.008 E82.69456
G0 F9000 X32.478 Y121.008
G1 F1800 X16.245 Y104.775 E83.83988
G0 F9000 X16.246 Y105.341
G1 F1800 X31.913 Y121.008 E84.94527
G0 F9000 X31.347 Y121.008
G1 F1800 X16.246 Y105.907 E86.01073
G0 F9000 X16.246 Y106.473
G1 F1800 X30.781 Y121.008 E87.03625
G0 F9000 X30.216 Y121.008
G1 F1800 X16.246 Y107.038 E88.02191
G0 F9000 X16.247 Y107.605
G1 F1800 X29.650 Y121.008 E88.96757
G0 F9000 X29.084 Y121.008
G1 F1800 X16.247 Y108.171 E89.87329
G0 F9000 X16.247 Y108.736
G1 F1800 X28.519 Y121.008 E90.73914
G0 F9000 X27.953 Y121.008
G1 F1800 X16.247 Y109.302 E91.56506
G0 F9000 X16.247 Y109.868
G1 F1800 X27.387 Y121.008 E92.35105
G0 F9000 X26.821 Y121.008
G1 F1800 X16.247 Y110.434 E93.09710
G0 F9000 X16.247 Y111.000
G1 F1800 X26.256 Y121.008 E93.80326
G0 F9000 X25.690 Y121.008
G1 F1800 X16.247 Y111.565 E94.46951
G0 F9000 X16.247 Y112.131
G1 F1800 X25.124 Y121.008 E95.09583
G0 F9000 X24.559 Y121.008
G1 F1800 X16.248 Y112.697 E95.68222
G0 F9000 X16.248 Y113.263
G1 F1800 X23.993 Y121.008 E96.22867
G0 F9000 X23.427 Y121.008
G1 F1800 X16.248 Y113.829 E96.73519
G0 F9000 X16.248 Y114.395
G1 F1800 X22.862 Y121.008 E97.20180
G0 F9000 X22.296 Y121.008
G1 F1800 X16.249 Y114.961 E97.62845
G0 F9000 X16.249 Y115.527
G1 F1800 X21.730 Y121.008 E98.01517
G0 F9000 X21.165 Y121.008
G1 F1800 X16.249 Y116.092 E98.36202
G0 F9000 X16.249 Y116.658
G1 F1800 X20.599 Y121.008 E98.66893
G0 F9000 X20.032 Y121.007
G1 F1800 X16.249 Y117.224 E98.93584
G0 F9000 X16.327 Y117.868
G1 F1800 X19.381 Y120.921 E99.15129
G0 F9000 X18.584 Y120.690
G1 F1800 X16.556 Y118.662 E99.29437
G0 F9000 X19.680 Y102.553
G1 F1800 X38.134 Y121.007 E100.59640
G0 F9000 X38.700 Y121.007
G1 F1800 X20.255 Y102.562 E101.89780
G0 F9000 X20.726 Y102.467
G1 F1800 X39.266 Y121.007 E103.20589
G0 F9000 X39.832 Y121.007
G1 F1800 X21.125 Y102.301 E104.52574
G0 F9000 X21.455 Y102.065
G1 F1800 X40.397 Y121.007 E105.86220
G0 F9000 X40.963 Y121.007
G1 F1800 X21.747 Y101.791 E107.21799
G0 F9000 X21.992 Y101.471
G1 F1800 X41.529 Y121.007 E108.59640
G0 F9000 X42.094 Y121.007
G1 F1800 X22.171 Y101.084 E110.00207
G0 F9000 X22.294 Y100.641
G1 F1800 X42.660 Y121.007 E111.43900
G0 F9000 X44.357 Y121.007
G1 F1800 X16.242 Y92.893 E113.42263
G0 F9000 X16.242 Y92.326
G1 F1800 X44.923 Y121.007 E115.44623
G0 F9000 X45.488 Y121.007
G1 F1800 X16.242 Y91.761 E117.50969
G0 F9000 X16.242 Y91.195
G1 F1800 X46.054 Y121.007 E119.61309
G0 F9000 X46.620 Y121.007
G1 F1800 X16.242 Y90.629 E121.75642
G0 F9000 X16.241 Y90.063
G1 F1800 X47.185 Y121.007 E123.93969
G0 F9000 X47.751 Y121.007
G1 F1800 X16.241 Y89.497 E126.16289
G0 F9000 X16.241 Y88.932
G1 F1800 X48.317 Y121.007 E128.42599
G0 F9000 X48.882 Y121.007
G1 F1800 X16.241 Y88.366 E130.72899
G0 F9000 X16.241 Y87.800
G1 F1800 X49.448 Y121.007 E133.07192
G0 F9000 X50.014 Y121.007
G1 F1800 X16.240 Y87.234 E135.45483
G0 F9000 X16.240 Y86.668
G1 F1800 X50.580 Y121.007 E137.87766
G0 F9000 X51.145 Y121.007
G1 F1800 X16.240 Y86.102 E140.34040
G0 F9000 X16.240 Y85.537
G1 F1800 X51.711 Y121.007 E142.84303
G0 F9000 X52.277 Y121.007
G1 F1800 X16.240 Y84.970 E145.38564
G0 F9000 X16.240 Y84.405
G1 F1800 X52.842 Y121.007 E147.96811
G0 F9000 X53.408 Y121.007
G1 F1800 X16.240 Y83.839 E150.59051
G0 F9000 X16.240 Y83.273
G1 F1800 X53.974 Y121.007 E153.25285
G0 F9000 X54.539 Y121.007
G1 F1800 X16.250 Y82.718 E155.95435
G0 F9000 X16.315 Y82.217
G1 F1800 X55.105 Y121.007 E158.69119
G0 F9000 X55.670 Y121.007
G1 F1800 X16.392 Y81.729 E161.46246
G0 F9000 X16.558 Y81.329
G1 F1800 X56.236 Y121.007 E164.26196
G0 F9000 X56.801 Y121.007
G1 F1800 X16.724 Y80.929 E167.08965
G0 F9000 X16.958 Y80.598
G1 F1800 X57.367 Y121.007 E169.94072
G0 F9000 X57.933 Y121.007
G1 F1800 X17.204 Y80.278 E172.81437
G0 F9000 X17.482 Y79.990
G1 F1800 X58.498 Y121.007 E175.70831
G0 F9000 X59.064 Y121.007
G1 F1800 X17.802 Y79.745 E178.61956
G0 F9000 X18.123 Y79.500
G1 F1800 X59.630 Y121.007 E181.54811
G0 F9000 X60.196 Y121.007
G1 F1800 X18.521 Y79.333 E184.48847
G0 F9000 X18.922 Y79.167
G1 F1800 X60.761 Y121.007 E187.44047
G0 F9000 X61.327 Y121.007
G1 F1800 X19.395 Y79.075 E190.39900
G0 F9000 X19.895 Y79.009
G1 F1800 X61.893 Y121.007 E193.36218
G0 F9000 X62.458 Y121.007
G1 F1800 X20.450 Y78.999 E196.32607
G0 F9000 X21.016 Y78.999
G1 F1800 X63.024 Y121.007 E199.28997
G0 F9000 X63.590 Y121.007
G1 F1800 X21.582 Y78.999 E202.25386
G0 F9000 X22.147 Y78.999
G1 F1800 X64.155 Y121.007 E205.21775
G0 F9000 X64.721 Y121.007
G1 F1800 X22.713 Y78.999 E208.18164
G0 F9000 X23.279 Y78.999
G1 F1800 X65.287 Y121.007 E211.14553
G0 F9000 X65.852 Y121.007
G1 F1800 X23.845 Y78.999 E214.10939
G0 F9000 X24.410 Y78.999
G1 F1800 X66.418 Y121.007 E217.07328
G0 F9000 X66.984 Y121.007
G1 F1800 X24.976 Y78.999 E220.03717
G0 F9000 X25.542 Y78.999
G1 F1800 X67.549 Y121.007 E223.00103
G0 F9000 X68.115 Y121.007
G1 F1800 X26.107 Y78.999 E225.96492
G0 F9000 X26.673 Y78.999
G1 F1800 X68.681 Y121.007 E228.92881
G0 F9000 X69.246 Y121.007
G1 F1800 X27.239 Y78.999 E231.89266
G0 F9000 X27.804 Y78.999
G1 F1800 X69.812 Y121.007 E234.85656
G0 F9000 X70.378 Y121.007
G1 F1800 X28.370 Y78.999 E237.82045
G0 F9000 X28.936 Y78.999
G1 F1800 X70.944 Y121.007 E240.78434
G0 F9000 X71.509 Y121.007
G1 F1800 X29.501 Y78.999 E243.74823
G0 F9000 X30.067 Y78.999
G1 F1800 X72.075 Y121.007 E246.71212
G0 F9000 X72.641 Y121.007
G1 F1800 X30.633 Y78.999 E249.67601
G0 F9000 X31.198 Y78.999
G1 F1800 X73.206 Y121.007 E252.63990
G0 F9000 X73.771 Y121.006
G1 F1800 X31.764 Y78.999 E255.60372
G0 F9000 X32.329 Y78.998
G1 F1800 X74.337 Y121.006 E258.56762
G0 F9000 X74.903 Y121.006
G1 F1800 X32.895 Y78.998 E261.53151
G0 F9000 X33.460 Y78.998
G1 F1800 X75.468 Y121.006 E264.49540
G0 F9000 X76.034 Y121.006
G1 F1800 X34.026 Y78.998 E267.45929
G0 F9000 X34.592 Y78.998
G1 F1800 X76.600 Y121.006 E270.42318
G0 F9000 X77.165 Y121.006
G1 F1800 X35.158 Y78.998 E273.38704
G0 F9000 X35.723 Y78.998
G1 F1800 X77.731 Y121.006 E276.35093
G0 F9000 X78.297 Y121.006
G1 F1800 X36.289 Y78.998 E279.31482
G0 F9000 X36.855 Y78.998
G1 F1800 X78.862 Y121.006 E282.27868
G0 F9000 X79.428 Y121.006
G1 F1800 X37.420 Y78.998 E285.24257
G0 F9000 X37.986 Y78.998
G1 F1800 X79.994 Y121.006 E288.20646
G0 F9000 X80.559 Y121.006
G1 F1800 X38.552 Y78.998 E291.17031
G0 F9000 X39.117 Y78.998
G1 F1800 X81.125 Y121.006 E294.13421
G0 F9000 X81.691 Y121.006
G1 F1800 X39.683 Y78.998 E297.09810
G0 F9000 X40.249 Y78.998
G1 F1800 X82.257 Y121.006 E300.06199
G0 F9000 X82.822 Y121.006
G1 F1800 X40.814 Y78.998 E303.02588
G0 F9000 X41.380 Y78.998
G1 F1800 X83.388 Y121.006 E305.98977
G0 F9000 X83.954 Y121.006
G1 F1800 X41.946 Y78.998 E308.95366
G0 F9000 X42.511 Y78.998
G1 F1800 X84.519 Y121.006 E311.91755
G0 F9000 X85.085 Y121.006
G1 F1800 X43.077 Y78.998 E314.88144
G0 F9000 X43.643 Y78.998
G1 F1800 X85.651 Y121.006 E317.84534
G0 F9000 X86.216 Y121.006
G1 F1800 X44.209 Y78.998 E320.80919
G0 F9000 X44.774 Y78.997
G1 F1800 X86.782 Y121.006 E323.77312
G0 F9000 X87.348 Y121.006
G1 F1800 X45.339 Y78.997 E326.73708
G0 F9000 X45.905 Y78.997
G1 F1800 X87.913 Y121.006 E329.70101
G0 F9000 X88.479 Y121.006
G1 F1800 X46.471 Y78.997 E332.66493
G0 F9000 X47.036 Y78.997
G1 F1800 X89.045 Y121.006 E335.62890
G0 F9000 X89.610 Y121.006
G1 F1800 X47.602 Y78.997 E338.59282
G0 F9000 X48.168 Y78.997
G1 F1800 X90.176 Y121.006 E341.55675
G0 F9000 X90.742 Y121.006
G1 F1800 X48.733 Y78.997 E344.52071
G0 F9000 X49.299 Y78.997
G1 F1800 X91.307 Y121.005 E347.48460
G0 F9000 X91.872 Y121.005
G1 F1800 X49.865 Y78.997 E350.44846
G0 F9000 X50.430 Y78.997
G1 F1800 X92.438 Y121.005 E353.41235
G0 F9000 X93.004 Y121.005
G1 F1800 X50.996 Y78.997 E356.37624
G0 F9000 X51.562 Y78.997
G1 F1800 X93.570 Y121.005 E359.34013
G0 F9000 X94.135 Y121.005
G1 F1800 X52.127 Y78.997 E362.30402
G0 F9000 X52.693 Y78.997
