;Generated with Cura_SteamEngine 15.01
; Default start code
G28 ; Home extruder
G1 Z15 F100
M107 ; Turn off fan
G90 ; Absolute positioning
M82 ; Extruder in absolute mode
M190 S85
; Activate all used extruder
M104 T0 S245
G92 E0 ; Reset extruder position
; Wait for all used extruders to reach temperature
M109 T0 S245
;Layer count: 77
;LAYER:0
M107
G0 F9000 X16.535 Y69.727 Z0.300
G0 X16.141 Y69.902
;TYPE:SKIRT
G1 F1800 X16.535 Y69.727 E0.02151
G1 X19.771 Y69.303 E0.18433
G1 X27.495 Y69.300 E0.56969
G1 X180.209 Y69.300 E8.18862
G1 X183.027 Y69.670 E8.33041
G1 X183.462 Y69.738 E8.35238
G1 X186.593 Y71.034 E8.52144
G1 X189.027 Y72.895 E8.67430
G1 X189.374 Y73.172 E8.69645
G1 X191.174 Y75.520 E8.84405
G1 X191.443 Y75.856 E8.86553
G1 X192.598 Y78.645 E9.01613
G1 X192.771 Y79.035 E9.03742
G1 X193.197 Y82.270 E9.20021
G1 X193.200 Y85.301 E9.35142
G1 X193.200 Y117.710 E10.96831
G1 X192.829 Y120.527 E11.11007
G1 X192.761 Y120.962 E11.13203
G1 X191.465 Y124.093 E11.30109
G1 X189.604 Y126.527 E11.45395
G1 X189.327 Y126.874 E11.47610
G1 X186.987 Y128.668 E11.62321
G1 X186.644 Y128.943 E11.64514
G1 X183.856 Y130.097 E11.79568
G1 X183.465 Y130.271 E11.81703
G1 X180.229 Y130.697 E11.97987
G1 X172.504 Y130.700 E12.36527
G1 X19.790 Y130.700 E19.98420
G1 X16.972 Y130.329 E20.12601
G1 X16.537 Y130.261 E20.14797
G1 X13.408 Y128.965 E20.31694
G1 X10.972 Y127.104 E20.46988
G1 X10.625 Y126.827 E20.49203
G1 X8.831 Y124.487 E20.63914
G1 X8.556 Y124.144 E20.66107
G1 X7.402 Y121.358 E20.81152
G1 X7.227 Y120.964 E20.83302
G1 X6.803 Y117.730 E20.99575
G1 X6.800 Y114.698 E21.14702
G1 X6.800 Y82.291 E22.76381
G1 X7.170 Y79.472 E22.90566
G1 X7.238 Y79.037 E22.92762
G1 X8.534 Y75.908 E23.09659
G1 X10.395 Y73.472 E23.24953
G1 X10.672 Y73.125 E23.27168
G1 X13.020 Y71.325 E23.41928
G1 X13.356 Y71.056 E23.44076
G1 X16.141 Y69.902 E23.59116
G1 F2400 E19.59116
G0 F9000 X17.568 Y73.425
;TYPE:WALL-INNER
G1 F2400 E23.59116
G1 F1800 X20.021 Y73.103 E23.71459
G1 X179.960 Y73.100 E31.69398
G1 X182.432 Y73.424 E31.81836
G1 X184.678 Y74.354 E31.93964
G1 X186.643 Y75.855 E32.06300
G1 X188.136 Y77.803 E32.18545
G1 X189.074 Y80.068 E32.30776
G1 X189.397 Y82.521 E32.43119
G1 X189.400 Y117.460 E34.17431
G1 X189.075 Y119.932 E34.29870
G1 X188.145 Y122.178 E34.41998
G1 X186.643 Y124.143 E34.54337
G1 X184.696 Y125.637 E34.66581
G1 X182.431 Y126.574 E34.78810
G1 X179.979 Y126.897 E34.91149
G1 X20.040 Y126.900 E42.89087
G1 X17.568 Y126.575 E43.01526
G1 X15.321 Y125.644 E43.13661
G1 X13.356 Y124.143 E43.25997
G1 X11.862 Y122.196 E43.38241
G1 X10.925 Y119.931 E43.50470
G1 X10.603 Y117.479 E43.62808
G1 X10.600 Y82.540 E45.37119
G1 X10.924 Y80.068 E45.49558
G1 X11.855 Y77.821 E45.61692
G1 X13.356 Y75.856 E45.74029
G1 X15.303 Y74.363 E45.86269
G1 X17.568 Y73.425 E45.98500
G0 F9000 X36.440 Y88.190
G1 F1800 X36.090 Y88.646 E46.01368
G1 X35.870 Y89.178 E46.04240
G1 X35.794 Y89.750 E46.07119
G1 X35.870 Y90.321 E46.09993
G1 X36.090 Y90.853 E46.12865
G1 X36.442 Y91.312 E46.15751
G1 X36.897 Y91.659 E46.18606
G1 X37.428 Y91.880 E46.21475
G1 X38.000 Y91.954 E46.24353
G1 X38.571 Y91.880 E46.27225
G1 X39.099 Y91.660 E46.30079
G1 X39.559 Y91.309 E46.32966
G1 X39.909 Y90.853 E46.35833
G1 X40.130 Y90.320 E46.38712
G1 X40.204 Y89.750 E46.41580
G1 X40.130 Y89.179 E46.44452
G1 X39.909 Y88.646 E46.47331
G1 X39.557 Y88.187 E46.50217
G1 X39.102 Y87.840 E46.53072
G1 X38.571 Y87.619 E46.55941
G1 X38.000 Y87.545 E46.58814
G1 X37.428 Y87.619 E46.61691
G1 X36.900 Y87.839 E46.64545
G1 X36.440 Y88.190 E46.67432
G0 F9000 X38.000 Y87.547
G0 X39.555 Y88.189
G0 X41.900 Y89.709
G1 F1800 X41.762 Y90.756 E46.72700
G1 X41.373 Y91.696 E46.77776
G1 X40.754 Y92.502 E46.82846
G1 X39.947 Y93.123 E46.87926
G1 X39.008 Y93.511 E46.92995
G1 X38.017 Y93.642 E46.97982
G1 X35.101 Y93.650 E47.12530
G1 X32.900 Y93.650 E47.23511
G1 X32.900 Y106.350 E47.86871
G1 X37.960 Y106.350 E48.12116
G1 X39.006 Y106.487 E48.17379
G1 X39.946 Y106.876 E48.22454
G1 X40.752 Y107.495 E48.27524
G1 X41.375 Y108.306 E48.32627
G1 X41.761 Y109.241 E48.37673
G1 X41.892 Y110.233 E48.42665
G1 X41.900 Y114.453 E48.63719
G1 X41.900 Y118.100 E48.81914
G1 X158.100 Y118.100 E54.61638
G1 X158.100 Y110.290 E55.00602
G1 X158.238 Y109.240 E55.05886
G1 X158.624 Y108.307 E55.10923
G1 X159.246 Y107.496 E55.16022
G1 X160.056 Y106.874 E55.21117
G1 X160.991 Y106.488 E55.26164
G1 X161.982 Y106.358 E55.31151
G1 X164.898 Y106.350 E55.45699
G1 X167.100 Y106.350 E55.56684
G1 X167.100 Y93.650 E56.20045
G1 X162.041 Y93.650 E56.45284
G1 X160.989 Y93.511 E56.50578
G1 X160.057 Y93.125 E56.55611
G1 X159.246 Y92.503 E56.60710
G1 X158.626 Y91.697 E56.65784
G1 X158.238 Y90.758 E56.70852
G1 X158.108 Y89.769 E56.75829
G1 X158.100 Y85.546 E56.96898
G1 X158.100 Y81.900 E57.15088
G1 X41.900 Y81.900 E62.94812
G1 X41.900 Y89.709 E63.33771
G0 F9000 X38.016 Y93.643
G0 X32.959 Y93.709
G0 X32.959 Y106.291
G0 X38.571 Y108.119
G1 F1800 X38.000 Y108.045 E63.36644
G1 X37.428 Y108.119 E63.39521
G1 X36.900 Y108.339 E63.42375
G1 X36.440 Y108.690 E63.45262
G1 X36.090 Y109.146 E63.48129
G1 X35.870 Y109.678 E63.51002
G1 X35.794 Y110.250 E63.53880
G1 X35.870 Y110.821 E63.56754
G1 X36.090 Y111.353 E63.59626
G1 X36.442 Y111.812 E63.62512
G1 X36.897 Y112.159 E63.65367
G1 X37.428 Y112.380 E63.68236
G1 X38.000 Y112.454 E63.71114
G1 X38.571 Y112.380 E63.73987
G1 X39.099 Y112.160 E63.76840
G1 X39.559 Y111.809 E63.79727
G1 X39.909 Y111.353 E63.82595
G1 X40.130 Y110.820 E63.85474
G1 X40.204 Y110.250 E63.88341
G1 X40.130 Y109.679 E63.91214
G1 X39.909 Y109.146 E63.94092
G1 X39.557 Y108.687 E63.96978
G1 X39.102 Y108.340 E63.99833
G1 X38.571 Y108.119 E64.02702
G0 F9000 X32.959 Y106.291
G0 X21.910 Y101.101
G1 F1800 X22.130 Y100.570 E64.05570
G1 X22.204 Y100.000 E64.08438
G1 X22.129 Y99.426 E64.11326
G1 X21.908 Y98.893 E64.14204
G1 X21.556 Y98.438 E64.17074
G1 X21.101 Y98.089 E64.19935
G1 X20.570 Y97.869 E64.22803
G1 X20.000 Y97.795 E64.25670
G1 X19.426 Y97.871 E64.28559
G1 X18.895 Y98.091 E64.31427
G1 X18.439 Y98.443 E64.34300
G1 X18.089 Y98.898 E64.37164
G1 X17.870 Y99.428 E64.40025
G1 X17.794 Y100.001 E64.42909
G1 X17.871 Y100.574 E64.45794
G1 X18.091 Y101.106 E64.48666
G1 X18.443 Y101.561 E64.51536
G1 X18.900 Y101.910 E64.54405
G1 X19.429 Y102.130 E64.57263
G1 X20.001 Y102.204 E64.60140
G1 X20.573 Y102.128 E64.63019
G1 X21.106 Y101.908 E64.65896
G1 X21.561 Y101.556 E64.68766
G1 X21.910 Y101.101 E64.71627
G0 F9000 X32.959 Y93.709
G0 X41.807 Y90.934
G0 X41.959 Y81.959
G0 X158.040 Y81.959
G0 X159.794 Y89.750
G1 F1800 X159.870 Y90.321 E64.74501
G1 X160.090 Y90.853 E64.77373
G1 X160.440 Y91.309 E64.80241
G1 X160.896 Y91.659 E64.83109
G1 X161.429 Y91.880 E64.85987
G1 X162.000 Y91.954 E64.88860
G1 X162.570 Y91.880 E64.91727
G1 X163.103 Y91.659 E64.94606
G1 X163.559 Y91.309 E64.97474
G1 X163.909 Y90.853 E65.00342
G1 X164.129 Y90.321 E65.03214
G1 X164.205 Y89.750 E65.06088
G1 X164.129 Y89.178 E65.08967
G1 X163.909 Y88.646 E65.11839
G1 X163.559 Y88.190 E65.14707
G1 X163.103 Y87.840 E65.17574
G1 X162.570 Y87.619 E65.20453
G1 X162.000 Y87.545 E65.23321
G1 X161.429 Y87.619 E65.26193
G1 X160.896 Y87.840 E65.29072
G1 X160.440 Y88.190 E65.31940
G1 X160.090 Y88.646 E65.34808
G1 X159.870 Y89.178 E65.37680
G1 X159.794 Y89.750 E65.40559
G0 F9000 X160.814 Y93.557
G0 X167.041 Y93.709
G0 X167.041 Y106.291
G0 X162.000 Y108.045
G1 F1800 X161.429 Y108.119 E65.43431
G1 X160.896 Y108.340 E65.46310
G1 X160.440 Y108.690 E65.49178
G1 X160.090 Y109.146 E65.52046
G1 X159.870 Y109.678 E65.54918
G1 X159.794 Y110.250 E65.57797
G1 X159.870 Y110.821 E65.60670
G1 X160.090 Y111.353 E65.63543
G1 X160.440 Y111.809 E65.66410
G1 X160.896 Y112.159 E65.69278
G1 X161.429 Y112.380 E65.72157
G1 X162.000 Y112.454 E65.75029
G1 X162.570 Y112.380 E65.77897
G1 X163.103 Y112.159 E65.80776
G1 X163.559 Y111.809 E65.83644
G1 X163.909 Y111.353 E65.86511
G1 X164.129 Y110.821 E65.89384
G1 X164.205 Y110.250 E65.92257
G1 X164.129 Y109.678 E65.95136
G1 X163.909 Y109.146 E65.98008
G1 X163.559 Y108.690 E66.00876
G1 X163.103 Y108.340 E66.03744
G1 X162.570 Y108.119 E66.06623
G1 X162.000 Y108.045 E66.09490
G0 F9000 X167.041 Y106.291
G0 X178.091 Y101.106
G1 F1800 X178.443 Y101.561 E66.12360
G1 X178.898 Y101.910 E66.15221
G1 X179.429 Y102.130 E66.18089
G1 X180.001 Y102.204 E66.20966
G1 X180.573 Y102.128 E66.23845
G1 X181.104 Y101.908 E66.26713
G1 X181.560 Y101.556 E66.29587
G1 X181.910 Y101.101 E66.32451
G1 X182.129 Y100.571 E66.35312
G1 X182.205 Y100.000 E66.38185
G1 X182.128 Y99.426 E66.41075
G1 X181.908 Y98.893 E66.43952
G1 X181.556 Y98.438 E66.46822
G1 X181.099 Y98.089 E66.49690
G1 X180.571 Y97.869 E66.52544
G1 X180.000 Y97.795 E66.55417
G1 X179.426 Y97.870 E66.58305
G1 X178.893 Y98.091 E66.61183
G1 X178.438 Y98.443 E66.64053
G1 X178.089 Y98.898 E66.66914
G1 X177.870 Y99.428 E66.69775
G1 X177.794 Y100.001 E66.72659
G1 X177.871 Y100.574 E66.75543
G1 X178.091 Y101.106 E66.78416
G0 F9000 X178.440 Y100.903
;TYPE:WALL-OUTER
G1 F1800 X178.728 Y101.275 E66.80763
G1 X179.100 Y101.561 E66.83104
G1 X179.533 Y101.740 E66.85441
G1 X180.000 Y101.801 E66.87791
G1 X180.468 Y101.739 E66.90146
G1 X180.902 Y101.559 E66.92490
G1 X181.275 Y101.271 E66.94841
G1 X181.561 Y100.899 E66.97182
G1 X181.740 Y100.466 E66.99520
G1 X181.802 Y100.000 E67.01865
G1 X181.739 Y99.531 E67.04226
G1 X181.559 Y99.096 E67.06575
G1 X181.271 Y98.724 E67.08922
G1 X180.898 Y98.438 E67.11267
G1 X180.466 Y98.259 E67.13600
G1 X180.000 Y98.198 E67.15945
G1 X179.531 Y98.260 E67.18305
G1 X179.096 Y98.440 E67.20653
G1 X178.724 Y98.728 E67.23001
G1 X178.438 Y99.100 E67.25342
G1 X178.259 Y99.533 E67.27679
G1 X178.197 Y100.000 E67.30029
G1 X178.260 Y100.469 E67.32390
G1 X178.440 Y100.903 E67.34734
G0 F9000 X178.164 Y101.017
G0 X167.000 Y105.949
G0 X166.700 Y105.949
G1 F1800 X166.700 Y94.050 E67.94099
G1 X162.011 Y94.050 E68.17492
G1 X160.888 Y93.902 E68.23143
G1 X159.852 Y93.473 E68.28738
G1 X158.961 Y92.788 E68.34345
G1 X158.276 Y91.898 E68.39948
G1 X157.847 Y90.861 E68.45547
G1 X157.708 Y89.798 E68.50895
G1 X157.700 Y82.300 E68.88303
G1 X42.300 Y82.300 E74.64036
G1 X42.300 Y89.739 E75.01149
G1 X42.152 Y90.861 E75.06795
G1 X41.723 Y91.898 E75.12394
G1 X41.038 Y92.788 E75.17997
G1 X40.148 Y93.473 E75.23600
G1 X39.111 Y93.902 E75.29199
G1 X38.048 Y94.042 E75.34548
G1 X33.300 Y94.051 E75.58236
G1 X33.300 Y105.950 E76.17600
G1 X37.989 Y105.950 E76.40994
G1 X39.111 Y106.097 E76.46640
G1 X40.148 Y106.526 E76.52238
G1 X41.038 Y107.211 E76.57841
G1 X41.723 Y108.102 E76.63449
G1 X42.152 Y109.138 E76.69043
G1 X42.292 Y110.202 E76.74397
G1 X42.300 Y117.700 E77.11805
G1 X157.700 Y117.700 E82.87537
G1 X157.700 Y110.261 E83.24651
G1 X157.847 Y109.138 E83.30301
G1 X158.276 Y108.102 E83.35896
G1 X158.961 Y107.211 E83.41503
G1 X159.852 Y106.526 E83.47110
G1 X160.888 Y106.097 E83.52704
G1 X161.952 Y105.958 E83.58057
G1 X166.700 Y105.949 E83.81745
G0 F9000 X167.000 Y105.949
G0 X167.041 Y106.291
G0 X163.456 Y108.739
G0 X163.274 Y108.975
G1 F1800 X162.901 Y108.689 E83.84090
G1 X162.466 Y108.509 E83.86439
G1 X162.000 Y108.448 E83.88784
G1 X161.533 Y108.509 E83.91133
G1 X161.098 Y108.689 E83.93482
G1 X160.725 Y108.975 E83.95827
G1 X160.439 Y109.348 E83.98172
G1 X160.259 Y109.783 E84.00521
G1 X160.197 Y110.250 E84.02871
G1 X160.259 Y110.716 E84.05216
G1 X160.439 Y111.151 E84.07565
G1 X160.725 Y111.524 E84.09910
G1 X161.098 Y111.810 E84.12255
G1 X161.533 Y111.990 E84.14604
G1 X162.000 Y112.051 E84.16953
G1 X162.466 Y111.990 E84.19298
G1 X162.901 Y111.810 E84.21647
G1 X163.274 Y111.524 E84.23992
G1 X163.560 Y111.151 E84.26337
G1 X163.740 Y110.716 E84.28685
G1 X163.802 Y110.250 E84.31031
G1 X163.740 Y109.783 E84.33381
G1 X163.560 Y109.348 E84.35730
G1 X163.274 Y108.975 E84.38075
G0 F9000 X163.456 Y108.739
G0 X167.041 Y106.291
G0 X167.041 Y93.709
G0 X161.962 Y91.847
G0 X162.000 Y91.551
G1 F1800 X162.466 Y91.490 E84.40419
G1 X162.901 Y91.310 E84.42768
G1 X163.274 Y91.024 E84.45113
G1 X163.560 Y90.651 E84.47458
G1 X163.740 Y90.216 E84.49807
G1 X163.802 Y89.750 E84.52152
G1 X163.740 Y89.283 E84.54502
G1 X163.560 Y88.848 E84.56851
G1 X163.274 Y88.475 E84.59196
G1 X162.901 Y88.189 E84.61541
G1 X162.466 Y88.009 E84.63890
G1 X162.000 Y87.948 E84.66234
G1 X161.533 Y88.009 E84.68584
G1 X161.098 Y88.189 E84.70933
G1 X160.725 Y88.475 E84.73278
G1 X160.439 Y88.848 E84.75623
G1 X160.259 Y89.283 E84.77971
G1 X160.197 Y89.750 E84.80322
G1 X160.259 Y90.216 E84.82667
G1 X160.439 Y90.651 E84.85016
G1 X160.725 Y91.024 E84.87361
G1 X161.098 Y91.310 E84.89706
G1 X161.533 Y91.490 E84.92054
G1 X162.000 Y91.551 E84.94404
G0 F9000 X161.962 Y91.847
G0 X163.102 Y91.657
G0 X164.128 Y90.320
G0 X179.968 Y73.000
G0 X179.989 Y72.700
G1 F1800 X182.533 Y73.034 E85.07205
G1 X184.882 Y74.006 E85.19888
G1 X186.926 Y75.568 E85.32722
G1 X188.484 Y77.599 E85.45493
G1 X189.465 Y79.967 E85.58280
G1 X189.797 Y82.492 E85.70986
G1 X189.800 Y117.489 E87.45587
G1 X189.465 Y120.033 E87.58389
G1 X188.493 Y122.382 E87.71071
G1 X186.931 Y124.426 E87.83906
G1 X184.900 Y125.985 E87.96679
G1 X182.532 Y126.965 E88.09465
G1 X180.008 Y127.297 E88.22166
G1 X20.011 Y127.300 E96.20394
G1 X17.468 Y126.966 E96.33190
G1 X15.117 Y125.992 E96.45886
G1 X13.073 Y124.431 E96.58717
G1 X11.514 Y122.400 E96.71491
G1 X10.534 Y120.032 E96.84277
G1 X10.203 Y117.508 E96.96977
G1 X10.200 Y82.507 E98.71598
G1 X10.533 Y79.967 E98.84378
G1 X11.507 Y77.617 E98.97069
G1 X13.068 Y75.573 E99.09901
G1 X15.099 Y74.015 E99.22671
G1 X17.467 Y73.034 E99.35459
G1 X19.992 Y72.703 E99.48164
G1 X179.989 Y72.700 E107.46392
G0 F9000 X179.968 Y73.000
G0 X41.959 Y81.959
G0 X39.949 Y93.124
G0 X32.959 Y93.709
G0 X32.959 Y106.291
G0 X41.769 Y109.290
G0 X40.038 Y109.746
G0 X39.740 Y109.783
G1 F1800 X39.560 Y109.348 E107.48741
G1 X39.273 Y108.974 E107.51093
G1 X38.900 Y108.689 E107.53435
G1 X38.466 Y108.509 E107.55779
G1 X38.000 Y108.448 E107.58124
G1 X37.533 Y108.509 E107.60473
G1 X37.100 Y108.689 E107.62813
G1 X36.725 Y108.975 E107.65166
G1 X36.439 Y109.348 E107.67511
G1 X36.259 Y109.783 E107.69859
G1 X36.197 Y110.250 E107.72210
G1 X36.259 Y110.716 E107.74555
G1 X36.439 Y111.151 E107.76904
G1 X36.726 Y111.525 E107.79256
G1 X37.099 Y111.810 E107.81598
G1 X37.533 Y111.990 E107.83942
G1 X38.000 Y112.051 E107.86291
G1 X38.466 Y111.990 E107.88636
G1 X38.899 Y111.810 E107.90976
G1 X39.274 Y111.524 E107.93329
G1 X39.560 Y111.151 E107.95674
G1 X39.740 Y110.716 E107.98022
G1 X39.801 Y110.250 E108.00367
G1 X39.740 Y109.783 E108.02717
G0 F9000 X40.038 Y109.746
G0 X39.185 Y106.442
G0 X32.959 Y106.291
G0 X32.959 Y93.709
G0 X37.962 Y91.847
G0 X38.000 Y91.551
G1 F1800 X38.466 Y91.490 E108.05061
G1 X38.899 Y91.310 E108.07401
G1 X39.274 Y91.024 E108.09754
G1 X39.560 Y90.651 E108.12099
G1 X39.740 Y90.216 E108.14447
G1 X39.801 Y89.750 E108.16792
G1 X39.740 Y89.283 E108.19142
G1 X39.560 Y88.848 E108.21490
G1 X39.273 Y88.474 E108.23842
G1 X38.900 Y88.189 E108.26184
G1 X38.466 Y88.009 E108.28528
G1 X38.000 Y87.948 E108.30873
G1 X37.533 Y88.009 E108.33223
G1 X37.100 Y88.189 E108.35562
G1 X36.725 Y88.475 E108.37915
G1 X36.439 Y88.848 E108.40260
G1 X36.259 Y89.283 E108.42609
G1 X36.197 Y89.750 E108.44959
G1 X36.259 Y90.216 E108.47304
G1 X36.439 Y90.651 E108.49653
G1 X36.726 Y91.025 E108.52005
G1 X37.099 Y91.310 E108.54347
G1 X37.533 Y91.490 E108.56691
G1 X38.000 Y91.551 E108.59041
G0 F9000 X37.962 Y91.847
G0 X32.959 Y93.709
G0 X21.797 Y98.914
G0 X21.559 Y99.096
G1 F1800 X21.271 Y98.724 E108.61388
G1 X20.899 Y98.438 E108.63729
G1 X20.466 Y98.259 E108.66066
G1 X20.000 Y98.198 E108.68411
G1 X19.531 Y98.260 E108.70771
G1 X19.097 Y98.440 E108.73115
G1 X18.724 Y98.728 E108.75467
G1 X18.438 Y99.100 E108.77808
G1 X18.259 Y99.533 E108.80145
G1 X18.197 Y100.000 E108.82495
G1 X18.260 Y100.469 E108.84856
G1 X18.440 Y100.903 E108.87200
G1 X18.728 Y101.275 E108.89547
G1 X19.101 Y101.561 E108.91892
G1 X19.533 Y101.740 E108.94225
G1 X20.000 Y101.801 E108.96575
G1 X20.468 Y101.739 E108.98930
G1 X20.903 Y101.559 E109.01279
G1 X21.275 Y101.271 E109.03626
G1 X21.561 Y100.899 E109.05967
G1 X21.740 Y100.466 E109.08305
G1 X21.801 Y100.000 E109.10649
G1 X21.739 Y99.531 E109.13010
G1 X21.559 Y99.096 E109.15358
G0 F9000 X22.279 Y99.495
;TYPE:SKIN
