;Generated with Cura_SteamEngine 15.01
; Default start code
G28 ; Home extruder
G1 Z15 F100
M107 ; Turn off fan
G90 ; Absolute positioning
M82 ; Extruder in absolute mode
M190 S85
; Activate all used extruder
M104 T0 S245
G92 E0 ; Reset extruder position
; Wait for all used extruders to reach temperature
M109 T0 S245
;Layer count: 20
;LAYER:0
M107
G0 F9000 X17.300 Y62.050 Z0.300
;TYPE:SKIRT
G1 F1800 X182.700 Y62.050 E8.25184
G1 X182.700 Y137.950 E12.03851
G1 X17.300 Y137.950 E20.29035
G1 X17.300 Y62.050 E24.07701
G1 F2400 E20.07701
G0 F9000 X21.100 Y65.850
;TYPE:WALL-INNER
G1 F2400 E24.07701
G1 F1800 X178.900 Y65.850 E31.94969
G1 X178.900 Y134.150 E35.35719
G1 X21.100 Y134.150 E43.22986
G1 X21.100 Y65.850 E46.63736
G0 F9000 X34.396 Y83.090
G1 F1800 X33.940 Y83.440 E46.66604
G1 X33.590 Y83.896 E46.69472
G1 X33.369 Y84.429 E46.72351
G1 X33.295 Y85.000 E46.75223
G1 X33.369 Y85.570 E46.78091
G1 X33.590 Y86.103 E46.80969
G1 X33.940 Y86.559 E46.83837
G1 X34.396 Y86.909 E46.86705
G1 X34.928 Y87.129 E46.89577
G1 X35.500 Y87.205 E46.92456
G1 X36.071 Y87.129 E46.95330
G1 X36.603 Y86.909 E46.98202
G1 X37.059 Y86.559 E47.01070
G1 X37.409 Y86.103 E47.03938
G1 X37.629 Y85.571 E47.06810
G1 X37.705 Y85.000 E47.09684
G1 X37.629 Y84.428 E47.12563
G1 X37.409 Y83.896 E47.15435
G1 X37.059 Y83.440 E47.18303
G1 X36.603 Y83.090 E47.21170
G1 X36.071 Y82.870 E47.24043
G1 X35.500 Y82.794 E47.26916
G1 X34.928 Y82.870 E47.29795
G1 X34.396 Y83.090 E47.32667
G0 F9000 X33.371 Y84.430
G0 X33.592 Y86.102
G0 X35.500 Y112.795
G1 F1800 X34.929 Y112.869 E47.35540
G1 X34.396 Y113.090 E47.38419
G1 X33.940 Y113.440 E47.41287
G1 X33.590 Y113.896 E47.44154
G1 X33.369 Y114.429 E47.47033
G1 X33.295 Y115.000 E47.49906
G1 X33.369 Y115.570 E47.52773
G1 X33.590 Y116.103 E47.55652
G1 X33.940 Y116.559 E47.58520
G1 X34.396 Y116.909 E47.61388
G1 X34.929 Y117.130 E47.64266
G1 X35.500 Y117.204 E47.67139
G1 X36.070 Y117.130 E47.70006
G1 X36.603 Y116.909 E47.72885
G1 X37.059 Y116.559 E47.75753
G1 X37.409 Y116.103 E47.78621
G1 X37.629 Y115.571 E47.81493
G1 X37.705 Y115.000 E47.84367
G1 X37.629 Y114.428 E47.87246
G1 X37.409 Y113.896 E47.90118
G1 X37.059 Y113.440 E47.92986
G1 X36.603 Y113.090 E47.95854
G1 X36.070 Y112.869 E47.98732
G1 X35.500 Y112.795 E48.01600
G0 F9000 X80.249 Y127.159
G1 F1800 X80.144 Y127.949 E48.05576
G1 X80.249 Y128.740 E48.09557
G1 X80.554 Y129.478 E48.13541
G1 X81.040 Y130.109 E48.17514
G1 X81.672 Y130.595 E48.21492
G1 X82.409 Y130.900 E48.25471
G1 X83.199 Y131.005 E48.29447
G1 X83.990 Y130.900 E48.33428
G1 X84.728 Y130.595 E48.37412
G1 X85.359 Y130.109 E48.41386
G1 X85.845 Y129.478 E48.45359
G1 X86.150 Y128.740 E48.49343
G1 X86.255 Y127.949 E48.53324
G1 X86.150 Y127.159 E48.57300
G1 X85.845 Y126.422 E48.61279
G1 X85.359 Y125.790 E48.65257
G1 X84.728 Y125.304 E48.69230
G1 X83.990 Y124.999 E48.73214
G1 X83.199 Y124.894 E48.77195
G1 X82.409 Y124.999 E48.81171
G1 X81.672 Y125.304 E48.85151
G1 X81.040 Y125.790 E48.89128
G1 X80.554 Y126.422 E48.93106
G1 X80.249 Y127.159 E48.97085
G0 F9000 X81.042 Y125.792
G0 X82.410 Y125.000
G0 X83.989 Y125.000
G0 X85.357 Y125.792
G0 X113.744 Y127.949
G1 F1800 X113.849 Y128.740 E49.01066
G1 X114.154 Y129.478 E49.05050
G1 X114.640 Y130.109 E49.09023
G1 X115.272 Y130.595 E49.13001
G1 X116.009 Y130.900 E49.16980
G1 X116.800 Y131.005 E49.20961
G1 X117.590 Y130.900 E49.24937
G1 X118.327 Y130.595 E49.28917
G1 X118.959 Y130.109 E49.32894
G1 X119.445 Y129.478 E49.36868
G1 X119.750 Y128.740 E49.40852
G1 X119.855 Y127.949 E49.44833
G1 X119.750 Y127.159 E49.48809
G1 X119.445 Y126.422 E49.52788
G1 X118.959 Y125.790 E49.56765
G1 X118.327 Y125.304 E49.60743
G1 X117.590 Y124.999 E49.64722
G1 X116.800 Y124.894 E49.68698
G1 X116.009 Y124.999 E49.72679
G1 X115.272 Y125.304 E49.76659
G1 X114.640 Y125.790 E49.80636
G1 X114.154 Y126.422 E49.84614
G1 X113.849 Y127.159 E49.88593
G1 X113.744 Y127.949 E49.92569
G0 F9000 X116.800 Y86.804
G1 F1800 X117.590 Y86.701 E49.96544
G1 X118.327 Y86.395 E50.00525
G1 X118.959 Y85.909 E50.04502
G1 X119.445 Y85.278 E50.08476
G1 X119.750 Y84.540 E50.12460
G1 X119.855 Y83.750 E50.16436
G1 X119.750 Y82.959 E50.20417
G1 X119.445 Y82.221 E50.24401
G1 X118.959 Y81.590 E50.28374
G1 X118.327 Y81.104 E50.32352
G1 X117.590 Y80.798 E50.36333
G1 X116.800 Y80.695 E50.40308
G1 X116.009 Y80.798 E50.44287
G1 X115.272 Y81.104 E50.48269
G1 X114.640 Y81.590 E50.52246
G1 X114.154 Y82.221 E50.56220
G1 X113.849 Y82.959 E50.60204
G1 X113.744 Y83.750 E50.64185
G1 X113.849 Y84.540 E50.68161
G1 X114.154 Y85.278 E50.72145
G1 X114.640 Y85.909 E50.76118
G1 X115.272 Y86.395 E50.80096
G1 X116.009 Y86.701 E50.84077
G1 X116.800 Y86.804 E50.88057
G0 F9000 X86.255 Y83.750
G1 F1800 X86.150 Y82.959 E50.92038
G1 X85.845 Y82.221 E50.96021
G1 X85.359 Y81.590 E50.99995
G1 X84.728 Y81.104 E51.03969
G1 X83.989 Y80.798 E51.07959
G1 X83.199 Y80.695 E51.11934
G1 X82.409 Y80.798 E51.15908
G1 X81.672 Y81.104 E51.19890
G1 X81.040 Y81.590 E51.23867
G1 X80.554 Y82.221 E51.27841
G1 X80.249 Y82.959 E51.31825
G1 X80.144 Y83.750 E51.35806
G1 X80.249 Y84.540 E51.39782
G1 X80.554 Y85.278 E51.43766
G1 X81.040 Y85.909 E51.47739
G1 X81.672 Y86.395 E51.51717
G1 X82.409 Y86.701 E51.55698
G1 X83.199 Y86.804 E51.59673
G1 X83.989 Y86.701 E51.63647
G1 X84.728 Y86.395 E51.67638
G1 X85.359 Y85.909 E51.71611
G1 X85.845 Y85.278 E51.75585
G1 X86.150 Y84.540 E51.79569
G1 X86.255 Y83.750 E51.83545
G0 F9000 X117.588 Y86.699
G0 X118.957 Y85.907
G0 X162.294 Y85.000
G1 F1800 X162.370 Y85.571 E51.86419
G1 X162.590 Y86.103 E51.89291
G1 X162.940 Y86.559 E51.92159
G1 X163.396 Y86.909 E51.95027
G1 X163.928 Y87.129 E51.97899
G1 X164.500 Y87.205 E52.00778
G1 X165.071 Y87.129 E52.03651
G1 X165.603 Y86.909 E52.06524
G1 X166.059 Y86.559 E52.09391
G1 X166.409 Y86.103 E52.12259
G1 X166.629 Y85.571 E52.15131
G1 X166.705 Y85.000 E52.18005
G1 X166.629 Y84.428 E52.20884
G1 X166.409 Y83.896 E52.23756
G1 X166.059 Y83.440 E52.26624
G1 X165.603 Y83.090 E52.29492
G1 X165.071 Y82.870 E52.32364
G1 X164.500 Y82.794 E52.35238
G1 X163.928 Y82.870 E52.38117
G1 X163.396 Y83.090 E52.40989
G1 X162.940 Y83.440 E52.43857
G1 X162.590 Y83.896 E52.46725
G1 X162.370 Y84.428 E52.49597
G1 X162.294 Y85.000 E52.52476
G0 F9000 X164.500 Y112.795
G1 F1800 X163.929 Y112.869 E52.55348
G1 X163.396 Y113.090 E52.58227
G1 X162.940 Y113.440 E52.61095
G1 X162.590 Y113.896 E52.63963
G1 X162.370 Y114.428 E52.66835
G1 X162.294 Y115.000 E52.69714
G1 X162.370 Y115.571 E52.72587
G1 X162.590 Y116.103 E52.75460
G1 X162.940 Y116.559 E52.78327
G1 X163.396 Y116.909 E52.81195
G1 X163.929 Y117.130 E52.84074
G1 X164.500 Y117.204 E52.86947
G1 X165.070 Y117.130 E52.89814
G1 X165.603 Y116.909 E52.92693
G1 X166.059 Y116.559 E52.95561
G1 X166.409 Y116.103 E52.98429
G1 X166.629 Y115.571 E53.01301
G1 X166.705 Y115.000 E53.04175
G1 X166.629 Y114.428 E53.07053
G1 X166.409 Y113.896 E53.09925
G1 X166.059 Y113.440 E53.12793
G1 X165.603 Y113.090 E53.15661
G1 X165.070 Y112.869 E53.18540
G1 X164.500 Y112.795 E53.21407
G0 F9000 X164.500 Y113.198
;TYPE:WALL-OUTER
G1 F1800 X164.033 Y113.259 E53.23757
G1 X163.598 Y113.439 E53.26106
G1 X163.225 Y113.725 E53.28451
G1 X162.939 Y114.098 E53.30796
G1 X162.759 Y114.533 E53.33144
G1 X162.697 Y115.000 E53.35495
G1 X162.759 Y115.466 E53.37840
G1 X162.939 Y115.901 E53.40189
G1 X163.225 Y116.274 E53.42534
G1 X163.598 Y116.560 E53.44879
G1 X164.033 Y116.740 E53.47227
G1 X164.500 Y116.801 E53.49577
G1 X164.966 Y116.740 E53.51922
G1 X165.401 Y116.560 E53.54271
G1 X165.774 Y116.274 E53.56616
G1 X166.060 Y115.901 E53.58960
G1 X166.240 Y115.466 E53.61309
G1 X166.302 Y115.000 E53.63655
G1 X166.240 Y114.533 E53.66005
G1 X166.060 Y114.098 E53.68354
G1 X165.774 Y113.725 E53.70699
G1 X165.401 Y113.439 E53.73043
G1 X164.966 Y113.259 E53.75392
G1 X164.500 Y113.198 E53.77737
G0 F9000 X164.538 Y112.902
G0 X165.602 Y113.092
G0 X166.628 Y114.429
G0 X179.000 Y134.340
G0 X179.300 Y134.550
G1 F1800 X20.700 Y134.550 E61.68995
G1 X20.700 Y65.450 E65.13737
G1 X179.300 Y65.450 E73.04995
G1 X179.300 Y134.550 E76.49737
G0 F9000 X179.000 Y134.340
G0 X165.006 Y87.038
G0 X164.966 Y86.740
G1 F1800 X165.401 Y86.560 E76.52085
G1 X165.774 Y86.274 E76.54430
G1 X166.060 Y85.901 E76.56775
G1 X166.240 Y85.466 E76.59124
G1 X166.302 Y85.000 E76.61469
G1 X166.240 Y84.533 E76.63820
G1 X166.060 Y84.098 E76.66168
G1 X165.774 Y83.725 E76.68513
G1 X165.401 Y83.439 E76.70858
G1 X164.966 Y83.259 E76.73207
G1 X164.500 Y83.197 E76.75552
G1 X164.033 Y83.259 E76.77903
G1 X163.598 Y83.439 E76.80251
G1 X163.225 Y83.725 E76.82596
G1 X162.939 Y84.098 E76.84941
G1 X162.759 Y84.533 E76.87290
G1 X162.697 Y85.000 E76.89640
G1 X162.759 Y85.466 E76.91986
G1 X162.939 Y85.901 E76.94334
G1 X163.225 Y86.274 E76.96679
G1 X163.598 Y86.560 E76.99024
G1 X164.033 Y86.740 E77.01373
G1 X164.500 Y86.802 E77.03723
G1 X164.966 Y86.740 E77.06069
G0 F9000 X165.006 Y87.038
G0 X164.500 Y87.204
G0 X119.749 Y83.789
G0 X119.452 Y83.750
G1 F1800 X119.361 Y83.064 E77.09521
G1 X119.096 Y82.423 E77.12982
G1 X118.674 Y81.875 E77.16432
G1 X118.125 Y81.453 E77.19887
G1 X117.485 Y81.188 E77.23343
G1 X116.800 Y81.098 E77.26790
G1 X116.114 Y81.188 E77.30241
G1 X115.474 Y81.453 E77.33697
G1 X114.925 Y81.875 E77.37152
G1 X114.503 Y82.423 E77.40603
G1 X114.238 Y83.064 E77.44063
G1 X114.147 Y83.750 E77.47516
G1 X114.238 Y84.435 E77.50963
G1 X114.503 Y85.076 E77.54424
G1 X114.925 Y85.624 E77.57874
G1 X115.474 Y86.046 E77.61329
G1 X116.114 Y86.311 E77.64785
G1 X116.800 Y86.401 E77.68237
G1 X117.485 Y86.311 E77.71683
G1 X118.125 Y86.046 E77.75139
G1 X118.674 Y85.624 E77.78594
G1 X119.096 Y85.076 E77.82045
G1 X119.361 Y84.435 E77.85505
G1 X119.452 Y83.750 E77.88953
G0 F9000 X119.749 Y83.789
G0 X119.443 Y85.277
G0 X118.326 Y86.393
G0 X116.800 Y86.802
G0 X115.273 Y86.393
G0 X114.156 Y85.277
G0 X86.149 Y83.789
G0 X85.852 Y83.750
G1 F1800 X85.761 Y83.064 E77.92405
G1 X85.496 Y82.423 E77.95865
G1 X85.074 Y81.875 E77.99316
G1 X84.526 Y81.453 E78.02767
G1 X83.885 Y81.188 E78.06227
G1 X83.199 Y81.098 E78.09679
G1 X82.514 Y81.188 E78.13126
G1 X81.874 Y81.453 E78.16582
G1 X81.325 Y81.875 E78.20036
G1 X80.903 Y82.423 E78.23487
G1 X80.638 Y83.064 E78.26948
G1 X80.547 Y83.750 E78.30400
G1 X80.638 Y84.435 E78.33848
G1 X80.903 Y85.076 E78.37308
G1 X81.325 Y85.624 E78.40759
G1 X81.874 Y86.046 E78.44213
G1 X82.514 Y86.311 E78.47669
G1 X83.199 Y86.401 E78.51116
G1 X83.885 Y86.311 E78.54568
G1 X84.526 Y86.046 E78.58028
G1 X85.074 Y85.624 E78.61479
G1 X85.496 Y85.076 E78.64930
G1 X85.761 Y84.435 E78.68390
G1 X85.852 Y83.750 E78.71838
G0 F9000 X86.149 Y83.789
G0 X83.238 Y125.000
G0 X83.199 Y125.297
G1 F1800 X82.514 Y125.388 E78.75285
G1 X81.874 Y125.653 E78.78741
G1 X81.325 Y126.075 E78.82196
G1 X80.903 Y126.624 E78.85650
G1 X80.638 Y127.264 E78.89106
G1 X80.547 Y127.949 E78.92554
G1 X80.638 Y128.635 E78.96006
G1 X80.903 Y129.276 E78.99467
G1 X81.325 Y129.824 E79.02917
G1 X81.874 Y130.246 E79.06372
G1 X82.514 Y130.511 E79.09828
G1 X83.199 Y130.602 E79.13275
G1 X83.885 Y130.511 E79.16728
G1 X84.526 Y130.246 E79.20188
G1 X85.074 Y129.824 E79.23639
G1 X85.496 Y129.276 E79.27090
G1 X85.761 Y128.635 E79.30550
G1 X85.852 Y127.949 E79.34003
G1 X85.761 Y127.264 E79.37450
G1 X85.496 Y126.624 E79.40906
G1 X85.074 Y126.075 E79.44361
G1 X84.526 Y125.653 E79.47811
G1 X83.885 Y125.388 E79.51272
G1 X83.199 Y125.297 E79.54724
G0 F9000 X83.238 Y125.000
G0 X113.850 Y127.910
G0 X114.147 Y127.949
G1 F1800 X114.238 Y128.635 E79.58177
G1 X114.503 Y129.276 E79.61637
G1 X114.925 Y129.824 E79.65088
G1 X115.474 Y130.246 E79.68542
G1 X116.114 Y130.511 E79.71998
G1 X116.800 Y130.602 E79.75451
G1 X117.485 Y130.511 E79.78898
G1 X118.125 Y130.246 E79.82354
G1 X118.674 Y129.824 E79.85809
G1 X119.096 Y129.276 E79.89259
G1 X119.361 Y128.635 E79.92720
G1 X119.452 Y127.949 E79.96172
G1 X119.361 Y127.264 E79.99620
G1 X119.096 Y126.624 E80.03076
G1 X118.674 Y126.075 E80.06530
G1 X118.125 Y125.653 E80.09985
G1 X117.485 Y125.388 E80.13441
G1 X116.800 Y125.297 E80.16888
G1 X116.114 Y125.388 E80.20341
G1 X115.474 Y125.653 E80.23797
G1 X114.925 Y126.075 E80.27251
G1 X114.503 Y126.624 E80.30706
G1 X114.238 Y127.264 E80.34162
G1 X114.147 Y127.949 E80.37609
G0 F9000 X113.850 Y127.910
G0 X37.537 Y115.507
G0 X37.240 Y115.466
G1 F1800 X37.302 Y115.000 E80.39955
G1 X37.240 Y114.533 E80.42305
G1 X37.060 Y114.098 E80.44654
G1 X36.774 Y113.725 E80.46999
G1 X36.401 Y113.439 E80.49344
G1 X35.966 Y113.259 E80.51692
G1 X35.500 Y113.198 E80.54037
G1 X35.033 Y113.259 E80.56387
G1 X34.598 Y113.439 E80.58735
G1 X34.225 Y113.725 E80.61080
G1 X33.939 Y114.098 E80.63425
G1 X33.759 Y114.533 E80.65774
G1 X33.698 Y115.000 E80.68124
G1 X33.759 Y115.466 E80.70468
G1 X33.939 Y115.901 E80.72817
G1 X34.225 Y116.274 E80.75162
G1 X34.598 Y116.560 E80.77507
G1 X35.033 Y116.740 E80.79856
G1 X35.500 Y116.801 E80.82205
G1 X35.966 Y116.740 E80.84550
G1 X36.401 Y116.560 E80.86899
G1 X36.774 Y116.274 E80.89244
G1 X37.060 Y115.901 E80.91589
G1 X37.240 Y115.466 E80.93937
G0 F9000 X37.537 Y115.507
G0 X37.704 Y115.000
G0 X35.461 Y87.099
G0 X35.500 Y86.802
G1 F1800 X35.966 Y86.740 E80.96283
G1 X36.401 Y86.560 E80.98631
G1 X36.774 Y86.274 E81.00976
G1 X37.060 Y85.901 E81.03321
G1 X37.240 Y85.466 E81.05670
G1 X37.302 Y85.000 E81.08015
G1 X37.240 Y84.533 E81.10366
G1 X37.060 Y84.098 E81.12714
G1 X36.774 Y83.725 E81.15059
G1 X36.401 Y83.439 E81.17404
G1 X35.966 Y83.259 E81.19753
G1 X35.500 Y83.197 E81.22098
G1 X35.033 Y83.259 E81.24449
G1 X34.598 Y83.439 E81.26797
G1 X34.225 Y83.725 E81.29142
G1 X33.939 Y84.098 E81.31487
G1 X33.759 Y84.533 E81.33836
G1 X33.698 Y85.000 E81.36186
G1 X33.759 Y85.466 E81.38530
G1 X33.939 Y85.901 E81.40879
G1 X34.225 Y86.274 E81.43224
G1 X34.598 Y86.560 E81.45569
G1 X35.033 Y86.740 E81.47918
G1 X35.500 Y86.802 E81.50268
G0 F9000 X35.575 Y87.336
;TYPE:SKIN
G1 F1800 X82.249 Y134.009 E84.79575
G0 F9000 X82.814 Y134.009
G1 F1800 X36.075 Y87.269 E88.09347
G0 F9000 X36.481 Y87.110
G1 F1800 X83.380 Y134.009 E91.40245
G0 F9000 X83.946 Y134.009
G1 F1800 X36.840 Y86.903 E94.72603
G0 F9000 X37.159 Y86.656
G1 F1800 X84.511 Y134.009 E98.06701
G0 F9000 X85.077 Y134.009
G1 F1800 X81.914 Y130.846 E98.29017
G0 F9000 X82.715 Y131.082
G1 F1800 X85.643 Y134.009 E98.49673
G0 F9000 X86.209 Y134.009
G1 F1800 X83.328 Y131.129 E98.69996
G0 F9000 X83.828 Y131.062
G1 F1800 X86.774 Y134.009 E98.90785
G0 F9000 X87.340 Y134.009
G1 F1800 X84.268 Y130.937 E99.12460
G0 F9000 X84.668 Y130.771
G1 F1800 X87.906 Y134.009 E99.35306
G0 F9000 X88.471 Y134.009
G1 F1800 X85.013 Y130.551 E99.59704
G0 F9000 X85.333 Y130.305
G1 F1800 X89.037 Y134.009 E99.85837
G0 F9000 X89.603 Y134.009
G1 F1800 X85.608 Y130.014 E100.14024
G0 F9000 X85.853 Y129.693
G1 F1800 X90.168 Y134.009 E100.44473
G0 F9000 X90.734 Y134.009
G1 F1800 X86.056 Y129.331 E100.77478
G0 F9000 X86.221 Y128.931
G1 F1800 X91.300 Y134.009 E101.13310
G0 F9000 X91.865 Y134.009
G1 F1800 X86.327 Y128.470 E101.52387
G0 F9000 X86.393 Y127.971
G1 F1800 X92.431 Y134.009 E101.94988
G0 F9000 X92.997 Y134.009
G1 F1800 X86.313 Y127.325 E102.42148
G0 F9000 X86.011 Y126.457
G1 F1800 X93.562 Y134.009 E102.95427
G0 F9000 X94.128 Y134.009
G1 F1800 X26.109 Y65.990 E107.75338
G0 F9000 X26.674 Y65.990
G1 F1800 X94.694 Y134.009 E112.55253
G0 F9000 X95.260 Y134.009
G1 F1800 X27.240 Y65.990 E117.35167
G0 F9000 X27.806 Y65.990
G1 F1800 X95.825 Y134.009 E122.15078
G0 F9000 X96.391 Y134.009
G1 F1800 X28.371 Y65.990 E126.94992
G0 F9000 X28.937 Y65.990
G1 F1800 X96.957 Y134.009 E131.74906
G0 F9000 X97.522 Y134.009
G1 F1800 X29.503 Y65.990 E136.54817
G0 F9000 X30.069 Y65.990
G1 F1800 X98.088 Y134.009 E141.34728
G0 F9000 X98.654 Y134.009
G1 F1800 X30.634 Y65.990 E146.14642
G0 F9000 X31.200 Y65.990
G1 F1800 X99.219 Y134.009 E150.94553
G0 F9000 X99.785 Y134.009
G1 F1800 X31.766 Y65.990 E155.74464
G0 F9000 X32.331 Y65.990
G1 F1800 X100.351 Y134.009 E160.54378
G0 F9000 X100.916 Y134.009
G1 F1800 X32.897 Y65.990 E165.34289
G0 F9000 X33.463 Y65.990
G1 F1800 X101.482 Y134.009 E170.14200
G0 F9000 X102.048 Y134.009
G1 F1800 X34.028 Y65.990 E174.94114
G0 F9000 X34.594 Y65.990
G1 F1800 X102.613 Y134.009 E179.74025
G0 F9000 X103.179 Y134.009
G1 F1800 X35.160 Y65.990 E184.53935
G0 F9000 X35.725 Y65.990
